;Sliced by ideaMaker 4.3.1.6452, 2023-01-24 06:14:57 UTC-0600
;Dimension: 250.000 255.000 265.000 0.400
;Plate Shape: 0
;Origin Center: 0
;Extruder Offset #1: 25.000 0.000
;Filament Diameter #1: 1.750
;Filament Diameter #2: 1.750
;Filament Compensation #1: 100.00
;Filament Compensation #2: 90.00
;Filament Density #1: 1240.00
;Filament Density #2: 1240.00
;Filament Type #1: PLA
;Filament Type #2: 
;Filament Name #1: [Raise3D] PLA 1.75mm
;Filament Name #2: 
;Firmware: Marlin
;Bounding Box: 96.639 153.365 112.301 142.703 0.000 1.960
;Model Gap: 0.000
M92 E415.00000
M221 T0 S100.00
M140 S60.00
M190 S60.00
M104 T0 S200.00
M109 T0 S200.00
T0
G21 ;metric values
G90 ;absolute positioning
M82 ;set extruder to absolute mode
M107 ;start with the fan off
G28; Fahr zum Nullpunkt
G92 E0; setze den Extruder auf Null
G1 Z2.0 F3000; Druckkopf 2mm nach oben fahren
G1 X10.1 Y20 Z0.28 F5000.0; Fahre an die Startposition X10.1 Y20 Z0.28
G1 X10.1 Y200.0 Z0.28 F1500.0 E15; Ziehe eine Linie von der Startposition aus nach Y200
G1 X10.4 Y200.0 Z0.28 F5000.0; Bissl zur Seite bewegen
G1 X10.4 Y20 Z0.28 F1500.0 E30; eine 2. Linie nach vorne ziehen
G92 E0; setze den Extruder auf Null
G1 Z2.0 F3000; Fahr die Düse 2mm nach oben
M117 Printing...
G5
;TOTAL_NUM: 1
;PRINTING_TIME: 0
;REMAINING_TIME: 324
M83
;LAYER:0
;Z:0.200
;HEIGHT:0.200
M106 S0
M140 S60
M104 T0 S200
;PRINTING: NON-OBJECT
;PRINTING_ID: -1
G1 F2400 E-6.5000
G0 F7200 X98.536 Y135.027
G0 F600 Z0.200
G0 F7200 X98.828 Y134.846
;TYPE:SKIRT
;WIDTH:0.400
G1 F2400 E6.5000
G1 F1200 X137.968 Y112.780 E1.4944
G1 X138.482 Y112.545 E0.0188
G1 X139.024 Y112.386 E0.0188
G1 X139.582 Y112.304 E0.0188
G1 X140.148 Y112.301 E0.0188
G1 X140.649 Y112.367 E0.0168
G1 X141.139 Y112.496 E0.0169
G1 X141.662 Y112.712 E0.0188
G1 X142.245 Y113.065 E0.0227
G1 X142.594 Y113.353 E0.0150
G1 X142.700 Y113.462 E0.0051
G1 X151.096 Y117.484 E0.3096
G1 X151.635 Y117.800 E0.0208
G1 X152.076 Y118.152 E0.0188
G1 X152.463 Y118.561 E0.0187
G1 X152.729 Y118.927 E0.0150
G1 X153.023 Y119.475 E0.0207
G1 X153.230 Y120.060 E0.0206
G1 X153.329 Y120.556 E0.0168
G1 X153.365 Y121.062 E0.0169
G1 X153.312 Y121.746 E0.0228
G1 X153.197 Y122.240 E0.0169
G1 X153.021 Y122.714 E0.0168
G1 X152.726 Y123.261 E0.0207
G1 X152.346 Y123.758 E0.0208
G1 X151.944 Y124.149 E0.0187
G1 X151.582 Y124.421 E0.0151
G1 X151.051 Y124.720 E0.0203
G1 X150.742 Y124.848 E0.0111
G1 X101.937 Y142.490 E1.7261
G1 X101.389 Y142.636 E0.0189
G1 X100.832 Y142.703 E0.0187
G1 X100.379 Y142.700 E0.0151
G1 X99.768 Y142.614 E0.0205
G1 X99.278 Y142.471 E0.0170
G1 X98.657 Y142.185 E0.0227
G1 X98.188 Y141.873 E0.0187
G1 X97.766 Y141.497 E0.0188
G1 X97.401 Y141.064 E0.0188
G1 X97.104 Y140.589 E0.0186
G1 X96.914 Y140.178 E0.0151
G1 X96.718 Y139.524 E0.0227
G1 X96.643 Y138.970 E0.0186
G1 X96.639 Y138.518 E0.0150
G1 X96.706 Y137.958 E0.0188
G1 X96.942 Y137.169 E0.0274
G1 X97.126 Y136.735 E0.0157
G1 X97.386 Y136.234 E0.0188
G1 X97.680 Y135.818 E0.0169
G1 X98.022 Y135.446 E0.0168
G1 X98.536 Y135.027 E0.0221
G1 X98.828 Y134.846 E0.0114
G0 F7200 X99.024 Y135.194
G1 F1200 X138.137 Y113.143 E1.4934
G1 X138.598 Y112.928 E0.0169
G1 X139.085 Y112.781 E0.0169
G1 X139.587 Y112.704 E0.0169
G1 X140.098 Y112.698 E0.0170
G1 X140.547 Y112.754 E0.0150
G1 X141.037 Y112.883 E0.0169
G1 X141.507 Y113.081 E0.0170
G1 X141.990 Y113.374 E0.0188
G1 X142.339 Y113.662 E0.0150
G1 X142.463 Y113.792 E0.0060
G1 X150.923 Y117.845 E0.3120
G1 X151.388 Y118.114 E0.0179
G1 X151.787 Y118.428 E0.0169
G1 X152.139 Y118.796 E0.0169
G1 X152.405 Y119.162 E0.0150
G1 X152.669 Y119.662 E0.0188
G1 X152.838 Y120.141 E0.0169
G1 X152.930 Y120.584 E0.0150
G1 X152.966 Y121.090 E0.0169
G1 X152.922 Y121.655 E0.0188
G1 X152.807 Y122.149 E0.0169
G1 X152.647 Y122.573 E0.0151
G1 X152.375 Y123.068 E0.0188
G1 X152.066 Y123.473 E0.0169
G1 X151.704 Y123.829 E0.0169
G1 X151.342 Y124.101 E0.0151
G1 X150.857 Y124.370 E0.0184
G1 X150.606 Y124.472 E0.0090
G1 X101.831 Y142.104 E1.7250
G1 X101.339 Y142.239 E0.0170
G1 X100.835 Y142.303 E0.0169
G1 X100.382 Y142.300 E0.0151
G1 X99.880 Y142.230 E0.0169
G1 X99.390 Y142.087 E0.0170
G1 X98.877 Y141.851 E0.0188
G1 X98.452 Y141.572 E0.0169
G1 X98.070 Y141.237 E0.0169
G1 X97.739 Y140.850 E0.0169
G1 X97.467 Y140.421 E0.0169
G1 X97.277 Y140.010 E0.0151
G1 X97.114 Y139.468 E0.0188
G1 X97.043 Y138.966 E0.0169
G1 X97.039 Y138.514 E0.0150
G1 X97.103 Y138.008 E0.0170
G1 X97.311 Y137.324 E0.0238
G1 X97.482 Y136.917 E0.0147
G1 X97.713 Y136.465 E0.0169
G1 X98.007 Y136.049 E0.0169
G1 X98.315 Y135.718 E0.0150
G1 X98.748 Y135.366 E0.0186
G1 X99.024 Y135.194 E0.0108
G0 F7200 X99.220 Y135.542
G1 F1200 X138.308 Y113.504 E1.4925
G1 X138.717 Y113.310 E0.0151
G1 X139.149 Y113.176 E0.0150
G1 X139.595 Y113.104 E0.0150
G1 X140.048 Y113.095 E0.0151
G1 X140.497 Y113.151 E0.0150
G1 X140.933 Y113.269 E0.0150
G1 X141.349 Y113.448 E0.0151
G1 X141.735 Y113.683 E0.0150
G1 X142.084 Y113.971 E0.0150
G1 X142.220 Y114.119 E0.0067
G1 X150.750 Y118.206 E0.3146
G1 X151.143 Y118.430 E0.0150
G1 X151.500 Y118.707 E0.0150
G1 X151.815 Y119.031 E0.0150
G1 X152.081 Y119.397 E0.0150
G1 X152.293 Y119.797 E0.0151
G1 X152.446 Y120.222 E0.0150
G1 X152.538 Y120.665 E0.0150
G1 X152.567 Y121.116 E0.0150
G1 X152.532 Y121.567 E0.0150
G1 X152.433 Y122.008 E0.0150
G1 X152.273 Y122.432 E0.0151
G1 X152.055 Y122.828 E0.0150
G1 X151.784 Y123.190 E0.0150
G1 X151.464 Y123.509 E0.0150
G1 X151.102 Y123.781 E0.0151
G1 X150.706 Y123.999 E0.0150
G1 X150.455 Y124.101 E0.0090
G1 X101.721 Y141.719 E1.7236
G1 X101.286 Y141.843 E0.0150
G1 X100.838 Y141.903 E0.0150
G1 X100.385 Y141.900 E0.0151
G1 X99.938 Y141.834 E0.0150
G1 X99.505 Y141.704 E0.0150
G1 X99.094 Y141.515 E0.0150
G1 X98.714 Y141.270 E0.0150
G1 X98.372 Y140.974 E0.0150
G1 X98.075 Y140.633 E0.0150
G1 X97.830 Y140.253 E0.0150
G1 X97.640 Y139.842 E0.0151
G1 X97.510 Y139.409 E0.0150
G1 X97.443 Y138.962 E0.0150
G1 X97.439 Y138.510 E0.0150
G1 X97.499 Y138.061 E0.0151
G1 X97.680 Y137.478 E0.0203
G1 X97.839 Y137.097 E0.0137
G1 X98.042 Y136.693 E0.0150
G1 X98.300 Y136.321 E0.0151
G1 X98.608 Y135.990 E0.0150
G1 X98.960 Y135.705 E0.0151
G1 X99.220 Y135.542 E0.0102
;PRINTING: SWAPlane-Yellow.stl
;PRINTING_ID: 0
G1 F2400 E-6.5000
G1 F600 Z0.500
G0 F7200 X111.563 Y133.405
;TYPE:WALL-INNER
;WIDTH:0.400
G1 F600 Z0.200
G1 F2400 E6.5000
G1 F1200 X139.672 Y117.557 E1.0733
G1 X146.551 Y120.851 E0.2537
G1 X146.541 Y121.049 E0.0066
G1 X111.677 Y133.654 E1.2330
G1 X111.563 Y133.405 E0.0091
G1 F2400 E-6.5000
G1 F600 Z0.500
G0 F7200 X107.188 Y135.412
G1 F600 Z0.200
G1 F2400 E6.5000
G1 F1200 X139.657 Y117.106 E1.2397
G1 X147.585 Y120.903 E0.2924
G1 X147.575 Y121.101 E0.0066
G1 X107.302 Y135.661 E1.4243
G1 X107.188 Y135.412 E0.0091
G1 F2400 E-6.5000
G1 F600 Z0.500
G0 F7200 X102.872 Y137.501
G0 X102.815 Y137.418
;TYPE:WALL-OUTER
;WIDTH:0.400
G1 F600 Z0.200
G1 F2400 E6.5000
G1 F1200 X139.642 Y116.655 E1.4061
G1 X148.619 Y120.955 E0.3311
G1 X148.609 Y121.153 E0.0066
G1 X102.930 Y137.667 E1.6155
G1 X102.815 Y137.418 E0.0091
G0 F1800 X102.989 Y137.320
G0 F7200 X102.681 Y137.629
;TYPE:WALL-OUTER
;WIDTH:0.588
G1 F1200 X102.351 Y137.780 E0.0177
G1 X102.022 Y137.931 E0.0177
;WIDTH:0.498
G1 X101.693 Y138.082 E0.0150
G1 X101.363 Y138.233 E0.0150
;WIDTH:0.407
G1 X101.034 Y138.384 E0.0123
G1 X100.705 Y138.536 E0.0123
G1 F2400 E-6.5000
G1 F600 Z0.500
G0 F7200 X100.816 Y138.582
G0 X139.701 Y116.421
;WIDTH:0.163
G1 F600 Z0.200
G1 F2400 E6.5000
G1 F1200 X139.822 Y116.418 E0.0016
G1 X139.896 Y116.514 E0.0016
G0 F7200 X139.750 Y116.817
G0 X139.688 Y118.007
;TYPE:SOLID-FILL
;WIDTH:0.400
G1 F1200 X145.593 Y120.835 E0.2178
G1 X145.587 Y120.969 E0.0045
G1 X115.542 Y131.831 E1.0626
G1 X115.465 Y131.664 E0.0061
G1 X139.688 Y118.007 E0.9249
G0 F7200 X139.702 Y118.458
G1 F1200 X144.716 Y120.859 E0.1849
G1 X118.870 Y130.203 E0.9141
G1 X139.702 Y118.458 E0.7954
G0 F7200 X139.716 Y118.909
G1 F1200 X143.682 Y120.808 E0.1463
G1 X123.239 Y128.198 E0.7230
G1 X139.716 Y118.909 E0.6291
G1 F2400 E-6.5000
G1 F600 Z0.500
G0 F7200 X143.050 Y120.705
G1 F600 Z0.200
G1 F2400 E6.5000
G1 F1200 X143.152 Y120.807 E0.0048
G0 F7200 X142.736 Y120.957
G1 F1200 X141.965 Y120.186 E0.0363
G0 F7200 X142.321 Y121.108
G1 F1200 X140.879 Y119.665 E0.0679
G0 F7200 X139.792 Y119.145
G1 F1200 X141.905 Y121.258 E0.0994
G0 F7200 X141.489 Y121.408
G1 F1200 X139.384 Y119.302 E0.0990
G0 F7200 X139.022 Y119.506
G1 F1200 X141.074 Y121.558 E0.0965
G0 F7200 X140.659 Y121.708
G1 F1200 X138.660 Y119.710 E0.0940
G0 F7200 X138.298 Y119.913
G1 F1200 X140.244 Y121.859 E0.0915
G0 F7200 X139.828 Y122.009
G1 F1200 X137.937 Y120.118 E0.0889
G0 F7200 X137.575 Y120.321
G1 F1200 X139.412 Y122.159 E0.0864
G0 F7200 X138.997 Y122.309
G1 F1200 X137.214 Y120.526 E0.0839
G0 F7200 X136.852 Y120.729
G1 F1200 X138.581 Y122.459 E0.0814
G0 F7200 X138.166 Y122.610
G1 F1200 X136.489 Y120.933 E0.0789
G0 F7200 X136.128 Y121.137
G1 F1200 X137.750 Y122.760 E0.0763
G0 F7200 X137.334 Y122.910
G1 F1200 X135.766 Y121.341 E0.0738
G0 F7200 X135.405 Y121.545
G1 F1200 X136.919 Y123.060 E0.0712
G0 F7200 X136.504 Y123.210
G1 F1200 X135.043 Y121.749 E0.0687
G0 F7200 X134.681 Y121.953
G1 F1200 X136.089 Y123.361 E0.0662
G0 F7200 X135.673 Y123.511
G1 F1200 X134.319 Y122.157 E0.0637
G0 F7200 X133.957 Y122.361
G1 F1200 X135.257 Y123.660 E0.0611
G0 F7200 X134.842 Y123.811
G1 F1200 X133.596 Y122.565 E0.0586
G0 F7200 X133.234 Y122.769
G1 F1200 X134.426 Y123.961 E0.0561
G0 F7200 X134.011 Y124.112
G1 F1200 X132.873 Y122.973 E0.0536
G0 F7200 X132.511 Y123.177
G1 F1200 X133.595 Y124.261 E0.0510
G0 F7200 X133.180 Y124.411
G1 F1200 X132.149 Y123.380 E0.0485
G0 F7200 X131.787 Y123.585
G1 F1200 X132.764 Y124.562 E0.0460
G0 F7200 X132.349 Y124.712
G1 F1200 X131.425 Y123.788 E0.0435
G0 F7200 X131.064 Y123.993
G1 F1200 X131.934 Y124.863 E0.0409
G0 F7200 X131.518 Y125.012
G1 F1200 X130.702 Y124.196 E0.0384
G0 F7200 X130.340 Y124.400
G1 F1200 X131.102 Y125.162 E0.0358
G0 F7200 X130.687 Y125.313
G1 F1200 X129.978 Y124.604 E0.0333
G0 F7200 X129.616 Y124.808
G1 F1200 X130.271 Y125.463 E0.0308
G0 F7200 X129.856 Y125.613
G1 F1200 X129.255 Y125.012 E0.0283
G0 F7200 X128.893 Y125.216
G1 F1200 X129.232 Y125.838 E0.0257
G1 X128.351 Y125.522 E0.0232
G1 X128.401 Y126.139 E0.0206
G1 X127.627 Y125.930 E0.0181
G1 X127.571 Y126.439 E0.0156
G1 X126.903 Y126.338 E0.0130
G1 X126.739 Y126.739 E0.0105
G1 X126.238 Y126.804 E0.0080
G1 X125.850 Y126.981 E0.0055
G1 X125.638 Y127.052 E0.0074
G1 F2400 E-6.5000
G1 F600 Z0.500
G0 F7200 X123.057 Y128.282
;TYPE:SOLID-FILL
;WIDTH:0.335
G1 F600 Z0.200
G1 F2400 E6.5000
G1 F1200 X122.721 Y128.435 E0.0103
G1 X122.386 Y128.589 E0.0103
;WIDTH:0.235
G1 X122.050 Y128.743 E0.0072
G1 X121.715 Y128.897 E0.0072
G1 F2400 E-6.5000
G1 F600 Z0.500
G0 F7200 X118.688 Y130.286
;WIDTH:0.335
G1 F600 Z0.200
G1 F2400 E6.5000
G1 F1200 X118.420 Y130.409 E0.0082
G1 X118.152 Y130.532 E0.0082
;WIDTH:0.254
G1 X117.884 Y130.655 E0.0062
G1 X117.616 Y130.778 E0.0062
;WIDTH:0.173
G1 X117.348 Y130.901 E0.0042
G0 F7200 X117.169 Y131.028
;TYPE:SOLID-FILL
;WIDTH:0.400
G1 F1200 X117.108 Y130.967 E0.0029
G1 F2400 E-6.5000
G1 F600 Z0.500
G0 F7200 X145.964 Y120.791
G1 F600 Z0.200
G1 F2400 E6.5000
G1 F1200 X146.451 Y120.995 E0.0087
G1 X146.878 Y121.139 E0.0150
G0 F7200 X147.793 Y120.923
G1 F1200 X148.022 Y121.152 E0.0108
G1 F2400 E-6.5000
G1 F600 Z0.500
G0 F7200 X115.321 Y131.830
;TYPE:SOLID-FILL
;WIDTH:0.506
G1 F600 Z0.200
G1 F2400 E6.5000
G1 F1200 X115.027 Y131.964 E0.0136
G1 X114.734 Y132.099 E0.0136
;WIDTH:0.413
G1 X114.440 Y132.234 E0.0111
G1 X114.147 Y132.369 E0.0111
;WIDTH:0.321
G1 X113.854 Y132.503 E0.0086
G1 X113.560 Y132.638 E0.0086
;WIDTH:0.228
G1 X113.267 Y132.773 E0.0061
G1 X112.974 Y132.908 E0.0061
G0 F7200 X112.912 Y132.994
;TYPE:SOLID-FILL
;WIDTH:0.400
G1 F1200 X112.835 Y132.916 E0.0036
G1 F2400 E-6.5000
G1 F600 Z0.500
G0 F7200 X111.429 Y133.616
;TYPE:SOLID-FILL
;WIDTH:0.587
G1 F600 Z0.200
G1 F2400 E6.5000
G1 F1200 X111.146 Y133.745 E0.0152
G1 X110.863 Y133.875 E0.0152
;WIDTH:0.496
G1 X110.580 Y134.005 E0.0128
G1 X110.297 Y134.135 E0.0128
;WIDTH:0.405
G1 X110.014 Y134.265 E0.0105
G1 X109.731 Y134.394 E0.0105
;WIDTH:0.315
G1 X109.448 Y134.524 E0.0082
G1 X109.165 Y134.654 E0.0082
;WIDTH:0.224
G1 X108.882 Y134.784 E0.0058
G1 X108.600 Y134.914 E0.0058
G1 F2400 E-6.5000
G1 F600 Z0.500
G0 F7200 X107.054 Y135.623
;WIDTH:0.587
G1 F600 Z0.200
G1 F2400 E6.5000
G1 F1200 X106.771 Y135.752 E0.0152
G1 X106.488 Y135.882 E0.0152
;WIDTH:0.496
G1 X106.205 Y136.012 E0.0128
G1 X105.922 Y136.142 E0.0128
;WIDTH:0.405
G1 X105.639 Y136.272 E0.0105
G1 X105.356 Y136.401 E0.0105
;WIDTH:0.315
G1 X105.073 Y136.531 E0.0082
G1 X104.790 Y136.661 E0.0082
;WIDTH:0.224
G1 X104.507 Y136.791 E0.0058
G1 X104.225 Y136.921 E0.0058
;PRINTING_TIME: 60
;REMAINING_TIME: 265
;LAYER:1
;Z:0.360
;HEIGHT:0.160
M106 S128
;PRINTING: SWAPlane-Yellow.stl
;PRINTING_ID: 0
G1 F2400 E-6.5000
G1 F600 Z0.660
G0 F600 Z0.360
G0 F7200 X111.563 Y133.405
;TYPE:WALL-INNER
;WIDTH:0.400
G1 F600 Z0.360
G1 F2400 E6.5000
G1 F1350 X139.672 Y117.557 E0.8586
G1 X146.551 Y120.851 E0.2029
G1 X146.541 Y121.049 E0.0053
G1 X111.677 Y133.654 E0.9864
G1 X111.563 Y133.405 E0.0073
G0 F7200 X107.188 Y135.412
G1 F1350 X139.657 Y117.106 E0.9918
G1 X147.585 Y120.903 E0.2339
G1 X147.575 Y121.101 E0.0053
G1 X107.302 Y135.661 E1.1395
G1 X107.188 Y135.412 E0.0073
G1 F2400 E-6.5000
G1 F600 Z0.660
G0 F7200 X102.872 Y137.501
G0 X102.815 Y137.418
;TYPE:WALL-OUTER
;WIDTH:0.400
G1 F600 Z0.360
G1 F2400 E6.5000
G1 F1350 X139.642 Y116.655 E1.1249
G1 X148.619 Y120.955 E0.2648
G1 X148.609 Y121.153 E0.0053
G1 X102.930 Y137.667 E1.2924
G1 X102.815 Y137.418 E0.0073
G0 F1800 X102.989 Y137.320
G0 F7200 X102.681 Y137.629
;TYPE:WALL-OUTER
;WIDTH:0.588
G1 F1350 X102.351 Y137.780 E0.0142
G1 X102.022 Y137.931 E0.0142
;WIDTH:0.498
G1 X101.693 Y138.082 E0.0120
G1 X101.363 Y138.233 E0.0120
;WIDTH:0.407
G1 X101.034 Y138.384 E0.0098
G1 X100.705 Y138.536 E0.0098
G1 F2400 E-6.5000
G1 F600 Z0.660
G0 F7200 X100.816 Y138.582
G0 X139.701 Y116.421
;WIDTH:0.163
G1 F600 Z0.360
G1 F2400 E6.5000
G1 F1350 X139.822 Y116.418 E0.0013
G1 X139.896 Y116.514 E0.0013
G0 F7200 X139.750 Y116.817
G0 X139.688 Y118.007
;TYPE:SOLID-FILL
;WIDTH:0.400
G1 F1800 X145.593 Y120.835 E0.1742
G1 X145.587 Y120.969 E0.0036
G1 X115.542 Y131.831 E0.8501
G1 X115.465 Y131.664 E0.0049
G1 X139.688 Y118.007 E0.7399
G0 F7200 X139.702 Y118.458
G1 F1800 X144.716 Y120.859 E0.1479
G1 X118.870 Y130.203 E0.7313
G1 X139.702 Y118.458 E0.6363
G0 F7200 X139.716 Y118.909
G1 F1800 X143.682 Y120.808 E0.1170
G1 X123.239 Y128.198 E0.5784
G1 X139.716 Y118.909 E0.5033
G1 F2400 E-6.5000
G1 F600 Z0.660
G0 F7200 X143.044 Y120.847
G1 F600 Z0.360
G1 F2400 E6.5000
G1 F1800 X143.142 Y120.749 E0.0037
G0 F7200 X142.759 Y120.566
G1 F1800 X142.158 Y121.167 E0.0226
G0 F7200 X142.378 Y120.382
G1 F1800 X141.273 Y121.487 E0.0416
G0 F7200 X140.387 Y121.807
G1 F1800 X141.995 Y120.199 E0.0605
G0 F7200 X141.612 Y120.016
G1 F1800 X139.501 Y122.127 E0.0794
G0 F7200 X138.615 Y122.448
G1 F1800 X141.230 Y119.833 E0.0984
G0 F7200 X140.847 Y119.650
G1 F1800 X137.729 Y122.768 E0.1173
G0 F7200 X136.843 Y123.088
G1 F1800 X140.465 Y119.467 E0.1363
G0 F7200 X140.082 Y119.283
G1 F1800 X135.957 Y123.409 E0.1552
G0 F7200 X135.071 Y123.729
G1 F1800 X139.647 Y119.153 E0.1722
G0 F7200 X138.351 Y119.884
G1 F1800 X134.186 Y124.049 E0.1567
G0 F7200 X133.300 Y124.369
G1 F1800 X137.054 Y120.615 E0.1413
G0 F7200 X135.757 Y121.346
G1 F1800 X132.414 Y124.689 E0.1258
G0 F7200 X131.528 Y125.010
G1 F1800 X134.461 Y122.077 E0.1104
G0 F7200 X133.164 Y122.808
G1 F1800 X130.642 Y125.330 E0.0949
G0 F7200 X129.756 Y125.650
G1 F1800 X131.867 Y123.539 E0.0794
G0 F7200 X130.570 Y124.270
G1 F1800 X128.870 Y125.971 E0.0640
G0 F7200 X127.977 Y125.732
G1 F1800 X127.098 Y126.611 E0.0331
G0 F7200 X126.681 Y126.463
G1 F1800 X126.212 Y126.931 E0.0176
G0 F7200 X125.384 Y127.194
G1 F1800 X125.326 Y127.251 E0.0022
G1 F2400 E-6.5000
G1 F600 Z0.660
G0 F7200 X127.984 Y126.291
G1 F600 Z0.360
G1 F2400 E6.5000
G1 F1800 X129.273 Y125.001 E0.0485
G1 F2400 E-6.5000
G1 F600 Z0.660
G0 F7200 X123.057 Y128.282
;TYPE:SOLID-FILL
;WIDTH:0.335
G1 F600 Z0.360
G1 F2400 E6.5000
G1 F1275 X122.721 Y128.435 E0.0082
