;Sliced by ideaMaker 4.3.1.6452, 2023-01-24 06:14:31 UTC-0600
;Dimension: 250.000 255.000 265.000 0.400
;Plate Shape: 0
;Origin Center: 0
;Extruder Offset #1: 25.000 0.000
;Filament Diameter #1: 1.750
;Filament Diameter #2: 1.750
;Filament Compensation #1: 100.00
;Filament Compensation #2: 90.00
;Filament Density #1: 1240.00
;Filament Density #2: 1240.00
;Filament Type #1: PLA
;Filament Type #2: 
;Filament Name #1: [Raise3D] PLA 1.75mm
;Filament Name #2: 
;Firmware: Marlin
;Bounding Box: 101.460 148.536 104.030 150.972 0.000 1.960
;Model Gap: 0.000
M92 E415.00000
M221 T0 S100.00
M140 S60.00
M190 S60.00
M104 T0 S200.00
M109 T0 S200.00
T0
G21 ;metric values
G90 ;absolute positioning
M82 ;set extruder to absolute mode
M107 ;start with the fan off
G28; Fahr zum Nullpunkt
G92 E0; setze den Extruder auf Null
G1 Z2.0 F3000; Druckkopf 2mm nach oben fahren
G1 X10.1 Y20 Z0.28 F5000.0; Fahre an die Startposition X10.1 Y20 Z0.28
G1 X10.1 Y200.0 Z0.28 F1500.0 E15; Ziehe eine Linie von der Startposition aus nach Y200
G1 X10.4 Y200.0 Z0.28 F5000.0; Bissl zur Seite bewegen
G1 X10.4 Y20 Z0.28 F1500.0 E30; eine 2. Linie nach vorne ziehen
G92 E0; setze den Extruder auf Null
G1 Z2.0 F3000; Fahr die Düse 2mm nach oben
M117 Printing...
G5
;TOTAL_NUM: 1
;PRINTING_TIME: 0
;REMAINING_TIME: 367
M83
;LAYER:0
;Z:0.200
;HEIGHT:0.200
M106 S0
M140 S60
M104 T0 S200
;PRINTING: NON-OBJECT
;PRINTING_ID: -1
G1 F2400 E-6.5000
G0 F7200 X137.965 Y105.628
G0 F600 Z0.200
;TYPE:SKIRT
;WIDTH:0.400
G1 F2400 E6.5000
G1 F1200 X138.334 Y105.202 E0.0187
G1 X138.759 Y104.830 E0.0188
G1 X139.230 Y104.524 E0.0187
G1 X139.637 Y104.328 E0.0150
G1 X140.286 Y104.122 E0.0226
G1 X140.844 Y104.036 E0.0188
G1 X141.411 Y104.030 E0.0189
G1 X141.967 Y104.103 E0.0187
G1 X142.405 Y104.218 E0.0151
G1 X142.926 Y104.431 E0.0187
G1 X143.463 Y104.747 E0.0207
G1 X143.860 Y105.064 E0.0169
G1 X144.286 Y105.518 E0.0207
G1 X144.639 Y106.036 E0.0208
G1 X144.889 Y106.560 E0.0193
G1 X145.072 Y107.161 E0.0209
G1 X148.476 Y124.215 E0.5784
G1 X148.536 Y124.717 E0.0168
G1 X148.532 Y125.225 E0.0169
G1 X148.426 Y125.899 E0.0227
G1 X148.253 Y126.437 E0.0188
G1 X148.060 Y126.846 E0.0150
G1 X147.686 Y127.414 E0.0226
G1 X147.307 Y127.831 E0.0187
G1 X146.920 Y128.157 E0.0168
G1 X146.508 Y128.424 E0.0163
G1 X107.368 Y150.490 E1.4944
G1 X106.854 Y150.725 E0.0188
G1 X106.367 Y150.872 E0.0169
G1 X105.869 Y150.956 E0.0168
G1 X105.246 Y150.972 E0.0207
G1 X104.739 Y150.913 E0.0170
G1 X104.140 Y150.754 E0.0206
G1 X103.619 Y150.530 E0.0189
G1 X103.091 Y150.205 E0.0206
G1 X102.742 Y149.917 E0.0150
G1 X102.285 Y149.414 E0.0226
G1 X101.974 Y148.946 E0.0187
G1 X101.774 Y148.540 E0.0151
G1 X101.564 Y147.896 E0.0225
G1 X101.479 Y147.394 E0.0169
G1 X101.460 Y146.829 E0.0188
G1 X101.531 Y146.211 E0.0207
G1 X101.643 Y145.773 E0.0150
G1 X101.762 Y145.447 E0.0115
G1 X102.388 Y143.941 E0.0542
G1 X102.648 Y143.440 E0.0188
G1 X102.972 Y142.985 E0.0186
G1 X103.281 Y142.648 E0.0152
G1 X132.051 Y114.912 E1.3292
G1 X132.440 Y114.585 E0.0169
G1 X132.914 Y114.282 E0.0187
G1 X133.475 Y114.030 E0.0205
G1 X137.629 Y106.157 E0.2961
G1 X137.965 Y105.628 E0.0208
G0 F7200 X138.269 Y105.888
G1 F1200 X138.599 Y105.501 E0.0169
G1 X138.979 Y105.164 E0.0169
G1 X139.404 Y104.884 E0.0169
G1 X139.811 Y104.688 E0.0150
G1 X140.350 Y104.517 E0.0188
G1 X140.851 Y104.436 E0.0169
G1 X141.361 Y104.427 E0.0170
G1 X141.865 Y104.490 E0.0169
G1 X142.303 Y104.605 E0.0151
G1 X142.773 Y104.800 E0.0169
G1 X143.257 Y105.090 E0.0188
G1 X143.608 Y105.375 E0.0150
G1 X143.957 Y105.746 E0.0169
G1 X144.279 Y106.211 E0.0188
G1 X144.506 Y106.677 E0.0172
G1 X144.689 Y107.278 E0.0209
G1 X148.079 Y124.265 E0.5761
G1 X148.136 Y124.714 E0.0151
G1 X148.132 Y125.222 E0.0169
G1 X148.044 Y125.779 E0.0188
G1 X147.891 Y126.266 E0.0170
G1 X147.698 Y126.675 E0.0150
G1 X147.388 Y127.147 E0.0188
G1 X147.049 Y127.525 E0.0169
G1 X146.662 Y127.851 E0.0168
G1 X146.312 Y128.076 E0.0138
G1 X107.199 Y150.127 E1.4934
G1 X106.738 Y150.342 E0.0169
G1 X106.251 Y150.489 E0.0169
G1 X105.805 Y150.561 E0.0150
G1 X105.238 Y150.572 E0.0189
G1 X104.789 Y150.516 E0.0150
G1 X104.245 Y150.368 E0.0188
G1 X103.779 Y150.164 E0.0169
G1 X103.346 Y149.896 E0.0169
G1 X102.997 Y149.608 E0.0150
G1 X102.617 Y149.191 E0.0188
G1 X102.333 Y148.769 E0.0169
G1 X102.133 Y148.363 E0.0151
G1 X101.958 Y147.826 E0.0188
G1 X101.879 Y147.381 E0.0150
G1 X101.860 Y146.816 E0.0188
G1 X101.919 Y146.310 E0.0169
G1 X102.031 Y145.872 E0.0150
G1 X102.131 Y145.600 E0.0096
G1 X102.744 Y144.123 E0.0532
G1 X102.976 Y143.670 E0.0169
G1 X103.267 Y143.255 E0.0169
G1 X103.559 Y142.936 E0.0144
G1 X132.329 Y115.200 E1.3292
G1 X132.697 Y114.891 E0.0160
G1 X133.127 Y114.620 E0.0169
G1 X133.592 Y114.412 E0.0169
G1 X133.758 Y114.361 E0.0058
G1 X137.983 Y106.343 E0.3014
G1 X138.269 Y105.888 E0.0179
G0 F7200 X138.337 Y106.529
G1 F1200 X138.575 Y106.145 E0.0150
G1 X138.866 Y105.798 E0.0151
G1 X139.202 Y105.496 E0.0150
G1 X139.578 Y105.244 E0.0151
G1 X139.985 Y105.048 E0.0150
G1 X140.416 Y104.911 E0.0150
G1 X140.862 Y104.836 E0.0150
G1 X141.314 Y104.824 E0.0150
G1 X141.763 Y104.877 E0.0150
G1 X142.201 Y104.992 E0.0151
G1 X142.617 Y105.168 E0.0150
G1 X143.005 Y105.401 E0.0151
G1 X143.356 Y105.686 E0.0150
G1 X143.663 Y106.018 E0.0150
G1 X143.921 Y106.390 E0.0151
G1 X144.123 Y106.794 E0.0150
G1 X144.306 Y107.395 E0.0209
G1 X147.682 Y124.315 E0.5739
G1 X147.739 Y124.764 E0.0151
G1 X147.732 Y125.216 E0.0150
G1 X147.662 Y125.662 E0.0150
G1 X147.529 Y126.095 E0.0151
G1 X147.336 Y126.504 E0.0150
G1 X147.088 Y126.882 E0.0150
G1 X146.789 Y127.221 E0.0150
G1 X146.445 Y127.515 E0.0151
G1 X146.116 Y127.728 E0.0130
G1 X107.028 Y149.766 E1.4925
G1 X106.619 Y149.960 E0.0151
G1 X106.187 Y150.094 E0.0150
G1 X105.741 Y150.166 E0.0150
G1 X105.288 Y150.175 E0.0151
G1 X104.839 Y150.119 E0.0150
G1 X104.403 Y150.001 E0.0150
G1 X103.987 Y149.822 E0.0151
G1 X103.601 Y149.587 E0.0150
G1 X103.252 Y149.299 E0.0150
G1 X102.947 Y148.965 E0.0150
G1 X102.692 Y148.592 E0.0150
G1 X102.492 Y148.186 E0.0151
G1 X102.352 Y147.756 E0.0150
G1 X102.273 Y147.311 E0.0150
G1 X102.258 Y146.859 E0.0150
G1 X102.307 Y146.409 E0.0151
G1 X102.419 Y145.971 E0.0150
G1 X102.500 Y145.753 E0.0077
G1 X103.102 Y144.302 E0.0522
G1 X103.305 Y143.897 E0.0151
G1 X103.562 Y143.525 E0.0150
G1 X103.837 Y143.224 E0.0136
G1 X132.607 Y115.488 E1.3292
G1 X132.954 Y115.198 E0.0150
G1 X133.338 Y114.960 E0.0150
G1 X133.753 Y114.778 E0.0151
G1 X134.032 Y114.700 E0.0096
G1 X138.337 Y106.529 E0.3072
;PRINTING: SWAPlane-Red.stl
;PRINTING_ID: 0
G1 F2400 E-6.5000
G1 F600 Z0.500
G0 F7200 X140.592 Y111.258
;TYPE:WALL-INNER
;WIDTH:0.400
G1 F600 Z0.200
G1 F2400 E6.5000
G1 F1200 X140.801 Y111.289 E0.0070
G1 X143.422 Y124.426 E0.4455
G1 X110.523 Y142.974 E1.2561
G1 X110.366 Y142.764 E0.0087
G1 X134.808 Y119.200 E1.1292
G1 X135.851 Y120.260 E0.0495
G1 X140.592 Y111.258 E0.3384
G0 F7200 X140.764 Y110.074
G1 F1200 X140.972 Y110.104 E0.0070
G1 X143.871 Y124.632 E0.4927
G1 X107.987 Y144.863 E1.3701
G1 X107.830 Y144.653 E0.0087
G1 X134.816 Y118.637 E1.2467
G1 X135.752 Y119.589 E0.0444
G1 X140.764 Y110.074 E0.3577
G1 F2400 E-6.5000
G1 F600 Z0.500
G0 F7200 X140.935 Y108.891
;TYPE:WALL-OUTER
;WIDTH:0.400
G1 F600 Z0.200
G1 F2400 E6.5000
G1 F1200 X141.144 Y108.922 E0.0070
G1 X144.320 Y124.838 E0.5398
G1 X106.147 Y146.360 E1.4575
G1 X105.988 Y146.219 E0.0071
G1 X106.227 Y145.643 E0.0207
G1 X134.824 Y118.074 E1.3212
G1 X135.653 Y118.918 E0.0393
G1 X140.935 Y108.891 E0.3769
G0 F1800 X141.133 Y108.920
G0 F7200 X140.857 Y109.462
;TYPE:SOLID-FILL
;WIDTH:0.400
G1 F1200 X141.094 Y109.699 E0.0111
G0 F7200 X140.764 Y110.500
G1 F1200 X140.718 Y110.736 E0.0048
G1 X140.770 Y111.071 E0.0113
G0 F7200 X140.474 Y111.907
G1 F1200 X140.758 Y112.190 E0.0133
G0 F7200 X140.609 Y112.371
;TYPE:SOLID-FILL
;WIDTH:0.400
G1 F1200 X142.974 Y124.220 E0.4019
G1 X112.761 Y141.253 E1.1536
G1 X112.656 Y141.112 E0.0058
G1 X134.800 Y119.763 E1.0231
G1 X135.949 Y120.930 E0.0545
G1 X140.469 Y112.350 E0.3225
G1 X140.609 Y112.371 E0.0047
G0 F7200 X140.396 Y113.346
G1 F1200 X142.525 Y124.014 E0.3618
G1 X114.690 Y139.707 E1.0628
G1 X134.793 Y120.326 E0.9288
G1 X136.048 Y121.601 E0.0595
G1 X140.396 Y113.346 E0.3103
G0 F7200 X140.225 Y114.530
G1 F1200 X142.076 Y123.808 E0.3147
G1 X117.224 Y137.820 E0.9489
G1 X134.786 Y120.889 E0.8114
G1 X136.147 Y122.272 E0.0645
G1 X140.225 Y114.530 E0.2910
G0 F7200 X139.981 Y115.374
G1 F1200 X140.265 Y115.658 E0.0134
G0 F7200 X139.786 Y115.744
G1 F1200 X140.406 Y116.365 E0.0292
G0 F7200 X140.547 Y117.071
G1 F1200 X139.591 Y116.115 E0.0450
G0 F7200 X139.396 Y116.485
G1 F1200 X140.688 Y117.778 E0.0608
G0 F7200 X140.829 Y118.484
G1 F1200 X139.201 Y116.856 E0.0766
G0 F7200 X139.005 Y117.226
G1 F1200 X140.970 Y119.192 E0.0925
G0 F7200 X141.111 Y119.898
G1 F1200 X138.810 Y117.597 E0.1082
G0 F7200 X138.615 Y117.968
G1 F1200 X141.253 Y120.605 E0.1241
G0 F7200 X141.393 Y121.311
G1 F1200 X138.420 Y118.338 E0.1398
G0 F7200 X138.225 Y118.709
G1 F1200 X141.534 Y122.018 E0.1556
G0 F7200 X141.675 Y122.725
G1 F1200 X138.030 Y119.079 E0.1715
G0 F7200 X137.834 Y119.450
G1 F1200 X141.816 Y123.431 E0.1873
G0 F7200 X141.656 Y123.837
G1 F1200 X137.639 Y119.820 E0.1889
G0 F7200 X137.444 Y120.191
G1 F1200 X141.294 Y124.041 E0.1811
G0 F7200 X140.933 Y124.245
G1 F1200 X137.249 Y120.561 E0.1733
G0 F7200 X137.054 Y120.932
G1 F1200 X140.571 Y124.449 E0.1654
G0 F7200 X140.209 Y124.653
G1 F1200 X136.859 Y121.302 E0.1576
G0 F7200 X136.663 Y121.673
G1 F1200 X139.848 Y124.857 E0.1498
G0 F7200 X139.486 Y125.061
G1 F1200 X136.468 Y122.043 E0.1420
G0 F7200 X136.273 Y122.414
G1 F1200 X139.124 Y125.265 E0.1341
G0 F7200 X138.762 Y125.469
G1 F1200 X134.606 Y121.312 E0.1955
G0 F7200 X134.318 Y121.590
G1 F1200 X138.401 Y125.673 E0.1921
G0 F7200 X138.039 Y125.877
G1 F1200 X134.029 Y121.867 E0.1886
G0 F7200 X133.742 Y122.145
G1 F1200 X137.677 Y126.080 E0.1851
G0 F7200 X137.315 Y126.285
G1 F1200 X133.454 Y122.423 E0.1816
G0 F7200 X133.165 Y122.700
G1 F1200 X136.953 Y126.488 E0.1782
G0 F7200 X136.592 Y126.693
G1 F1200 X132.878 Y122.978 E0.1747
G0 F7200 X132.590 Y123.256
G1 F1200 X136.230 Y126.896 E0.1712
G0 F7200 X135.868 Y127.100
G1 F1200 X132.301 Y123.533 E0.1678
G0 F7200 X132.014 Y123.811
G1 F1200 X135.507 Y127.304 E0.1643
G0 F7200 X135.145 Y127.508
G1 F1200 X131.726 Y124.089 E0.1608
G0 F7200 X131.438 Y124.367
G1 F1200 X134.783 Y127.712 E0.1573
G0 F7200 X134.421 Y127.916
G1 F1200 X131.149 Y124.644 E0.1539
G0 F7200 X130.862 Y124.922
G1 F1200 X134.060 Y128.120 E0.1504
G0 F7200 X133.698 Y128.324
G1 F1200 X130.574 Y125.200 E0.1469
G0 F7200 X130.285 Y125.477
G1 F1200 X133.336 Y128.527 E0.1435
G0 F7200 X132.974 Y128.732
G1 F1200 X129.998 Y125.755 E0.1400
G0 F7200 X129.710 Y126.033
G1 F1200 X132.612 Y128.935 E0.1365
G0 F7200 X132.251 Y129.140
G1 F1200 X129.421 Y126.310 E0.1331
G0 F7200 X129.133 Y126.588
G1 F1200 X131.889 Y129.343 E0.1296
G0 F7200 X131.527 Y129.547
G1 F1200 X128.846 Y126.866 E0.1261
G0 F7200 X128.557 Y127.143
G1 F1200 X131.166 Y129.751 E0.1227
G0 F7200 X130.804 Y129.955
G1 F1200 X128.269 Y127.421 E0.1192
G0 F7200 X127.982 Y127.699
G1 F1200 X130.442 Y130.159 E0.1157
G0 F7200 X130.080 Y130.363
G1 F1200 X127.693 Y127.976 E0.1123
G0 F7200 X127.405 Y128.254
G1 F1200 X129.719 Y130.567 E0.1088
G0 F7200 X129.357 Y130.771
G1 F1200 X127.118 Y128.532 E0.1053
G0 F7200 X126.829 Y128.809
G1 F1200 X128.995 Y130.975 E0.1019
G0 F7200 X128.634 Y131.179
G1 F1200 X126.541 Y129.087 E0.0984
G0 F7200 X126.253 Y129.365
G1 F1200 X128.271 Y131.383 E0.0949
G0 F7200 X127.910 Y131.587
G1 F1200 X125.966 Y129.643 E0.0914
G0 F7200 X125.677 Y129.920
G1 F1200 X127.548 Y131.791 E0.0880
G0 F7200 X127.186 Y131.994
G1 F1200 X125.389 Y130.198 E0.0845
G0 F7200 X125.102 Y130.476
G1 F1200 X126.825 Y132.199 E0.0810
G0 F7200 X126.463 Y132.402
G1 F1200 X124.813 Y130.753 E0.0776
G0 F7200 X124.525 Y131.031
G1 F1200 X126.101 Y132.607 E0.0741
G0 F7200 X125.739 Y132.810
G1 F1200 X124.237 Y131.309 E0.0706
G0 F7200 X123.949 Y131.586
G1 F1200 X125.378 Y133.015 E0.0672
G0 F7200 X125.016 Y133.218
G1 F1200 X123.661 Y131.864 E0.0637
G0 F7200 X123.373 Y132.141
G1 F1200 X124.654 Y133.422 E0.0603
G0 F7200 X124.293 Y133.626
G1 F1200 X123.085 Y132.419 E0.0568
G0 F7200 X122.797 Y132.697
G1 F1200 X123.931 Y133.830 E0.0533
G0 F7200 X123.569 Y134.034
G1 F1200 X122.509 Y132.974 E0.0499
G0 F7200 X122.221 Y133.252
G1 F1200 X123.207 Y134.238 E0.0464
G0 F7200 X122.845 Y134.442
G1 F1200 X121.933 Y133.530 E0.0429
G0 F7200 X121.645 Y133.807
G1 F1200 X122.484 Y134.646 E0.0395
G0 F7200 X122.122 Y134.850
G1 F1200 X121.357 Y134.085 E0.0360
G0 F7200 X121.069 Y134.363
G1 F1200 X121.760 Y135.054 E0.0325
G0 F7200 X121.398 Y135.258
G1 F1200 X120.781 Y134.640 E0.0290
G0 F7200 X120.493 Y134.918
G1 F1200 X120.856 Y135.564 E0.0256
G1 X120.061 Y135.334 E0.0221
G1 X120.132 Y135.971 E0.0187
G1 X119.485 Y135.889 E0.0151
G1 X119.409 Y136.379 E0.0117
G1 X118.909 Y136.445 E0.0082
G1 X118.866 Y136.685 E0.0081
G1 F2400 E-6.5000
G1 F600 Z0.500
G0 F7200 X117.062 Y137.938
;TYPE:SOLID-FILL
;WIDTH:0.309
G1 F600 Z0.200
G1 F2400 E6.5000
G1 F1200 X116.877 Y138.075 E0.0059
G1 X116.692 Y138.213 E0.0059
;WIDTH:0.221
G1 X116.507 Y138.351 E0.0042
G1 X116.322 Y138.489 E0.0042
G0 F7200 X116.251 Y138.595
;TYPE:SOLID-FILL
;WIDTH:0.400
G1 F1200 X116.191 Y138.536 E0.0028
G1 F2400 E-6.5000
G1 F600 Z0.500
G0 F7200 X114.529 Y139.827
;TYPE:SOLID-FILL
;WIDTH:0.308
G1 F600 Z0.200
G1 F2400 E6.5000
G1 F1200 X114.343 Y139.964 E0.0059
G1 X114.158 Y140.102 E0.0059
;WIDTH:0.220
G1 X113.972 Y140.240 E0.0042
G1 X113.787 Y140.378 E0.0042
G1 F2400 E-6.5000
G1 F600 Z0.500
G0 F7200 X112.548 Y141.301
;WIDTH:0.463
G1 F600 Z0.200
G1 F2400 E6.5000
G1 F1200 X112.362 Y141.439 E0.0089
G1 X112.177 Y141.577 E0.0089
;WIDTH:0.368
G1 X111.992 Y141.715 E0.0071
G1 X111.806 Y141.853 E0.0071
;WIDTH:0.274
G1 X111.621 Y141.991 E0.0053
G1 X111.436 Y142.129 E0.0053
;WIDTH:0.179
G1 X111.251 Y142.267 E0.0034
G0 F7200 X110.276 Y142.994
;WIDTH:0.537
G1 F1200 X110.102 Y143.123 E0.0097
G1 X109.929 Y143.252 E0.0096
;WIDTH:0.447
G1 X109.756 Y143.381 E0.0080
G1 X109.582 Y143.510 E0.0081
;WIDTH:0.357
G1 X109.409 Y143.639 E0.0064
G1 X109.236 Y143.768 E0.0064
;WIDTH:0.267
G1 X109.062 Y143.897 E0.0048
G1 X108.889 Y144.026 E0.0048
;WIDTH:0.177
G1 X108.716 Y144.155 E0.0032
G0 F7200 X107.739 Y144.882
;WIDTH:0.537
G1 F1200 X107.559 Y145.015 E0.0100
G1 X107.380 Y145.149 E0.0100
;WIDTH:0.444
G1 X107.201 Y145.283 E0.0083
G1 X107.022 Y145.417 E0.0083
;WIDTH:0.352
G1 X106.843 Y145.551 E0.0065
G1 X106.664 Y145.685 E0.0065
;WIDTH:0.259
G1 X106.485 Y145.819 E0.0048
;WIDTH:0.208
G1 X106.423 Y145.889 E0.0016
G1 X106.361 Y145.959 E0.0016
;PRINTING_TIME: 72
;REMAINING_TIME: 295
;LAYER:1
;Z:0.360
;HEIGHT:0.160
M106 S128
;PRINTING: SWAPlane-Red.stl
;PRINTING_ID: 0
G1 F2400 E-6.5000
G1 F600 Z0.660
G0 F600 Z0.360
G0 F7200 X135.682 Y119.115
G0 X140.592 Y111.258
;TYPE:WALL-INNER
;WIDTH:0.400
G1 F600 Z0.360
G1 F2400 E6.5000
G1 F1350 X140.801 Y111.289 E0.0056
G1 X143.422 Y124.426 E0.3564
G1 X110.523 Y142.974 E1.0049
G1 X110.366 Y142.764 E0.0070
G1 X134.808 Y119.200 E0.9034
G1 X135.851 Y120.260 E0.0396
G1 X140.592 Y111.258 E0.2707
G0 F7200 X140.764 Y110.074
G1 F1350 X140.972 Y110.104 E0.0056
G1 X143.871 Y124.632 E0.3942
G1 X107.987 Y144.863 E1.0961
G1 X107.830 Y144.653 E0.0070
G1 X134.816 Y118.637 E0.9974
G1 X135.752 Y119.589 E0.0355
G1 X140.764 Y110.074 E0.2862
G1 F2400 E-6.5000
G1 F600 Z0.660
G0 F7200 X140.935 Y108.891
;TYPE:WALL-OUTER
;WIDTH:0.400
G1 F600 Z0.360
G1 F2400 E6.5000
G1 F1350 X141.144 Y108.922 E0.0056
G1 X144.320 Y124.838 E0.4318
G1 X106.147 Y146.360 E1.1660
G1 X105.988 Y146.219 E0.0057
G1 X106.227 Y145.643 E0.0166
G1 X134.824 Y118.074 E1.0569
G1 X135.653 Y118.918 E0.0315
G1 X140.935 Y108.891 E0.3016
G0 F1800 X141.133 Y108.920
G0 F7200 X141.014 Y109.301
;TYPE:SOLID-FILL
;WIDTH:0.400
G1 F1800 X140.986 Y109.611 E0.0056
G1 X140.924 Y110.239 E0.0045
G1 X140.563 Y110.883 E0.0196
G0 F7200 X140.711 Y111.867
G1 F1800 X140.434 Y112.143 E0.0104
G0 F7200 X140.609 Y112.371
;TYPE:SOLID-FILL
;WIDTH:0.400
G1 F1800 X142.974 Y124.220 E0.3215
G1 X112.761 Y141.253 E0.9229
G1 X112.656 Y141.112 E0.0047
G1 X134.800 Y119.763 E0.8184
