;Sliced by ideaMaker 4.3.1.6452, 2023-01-24 06:13:03 UTC-0600
;Dimension: 250.000 255.000 265.000 0.400
;Plate Shape: 0
;Origin Center: 0
;Extruder Offset #1: 25.000 0.000
;Filament Diameter #1: 1.750
;Filament Diameter #2: 1.750
;Filament Compensation #1: 100.00
;Filament Compensation #2: 90.00
;Filament Density #1: 1240.00
;Filament Density #2: 1240.00
;Filament Type #1: PLA
;Filament Type #2: 
;Filament Name #1: [Raise3D] PLA 1.75mm
;Filament Name #2: 
;Firmware: Marlin
;Bounding Box: 106.924 143.678 102.737 150.814 0.000 1.960
;Model Gap: 0.000
M92 E415.00000
M221 T0 S100.00
M140 S60.00
M190 S60.00
M104 T0 S200.00
M109 T0 S200.00
T0
G21 ;metric values
G90 ;absolute positioning
M82 ;set extruder to absolute mode
M107 ;start with the fan off
G28; Fahr zum Nullpunkt
G92 E0; setze den Extruder auf Null
G1 Z2.0 F3000; Druckkopf 2mm nach oben fahren
G1 X10.1 Y20 Z0.28 F5000.0; Fahre an die Startposition X10.1 Y20 Z0.28
G1 X10.1 Y200.0 Z0.28 F1500.0 E15; Ziehe eine Linie von der Startposition aus nach Y200
G1 X10.4 Y200.0 Z0.28 F5000.0; Bissl zur Seite bewegen
G1 X10.4 Y20 Z0.28 F1500.0 E30; eine 2. Linie nach vorne ziehen
G92 E0; setze den Extruder auf Null
G1 Z2.0 F3000; Fahr die Düse 2mm nach oben
M117 Printing...
G5
;TOTAL_NUM: 1
;PRINTING_TIME: 0
;REMAINING_TIME: 349
M83
;LAYER:0
;Z:0.200
;HEIGHT:0.200
M106 S0
M140 S60
M104 T0 S200
;PRINTING: NON-OBJECT
;PRINTING_ID: -1
G1 F2400 E-6.5000
G0 F7200 X124.397 Y104.271
G0 F600 Z0.200
;TYPE:SKIRT
;WIDTH:0.400
G1 F2400 E6.5000
G1 F1200 X124.773 Y103.852 E0.0187
G1 X125.251 Y103.457 E0.0206
G1 X125.686 Y103.191 E0.0170
G1 X126.203 Y102.963 E0.0188
G1 X126.748 Y102.811 E0.0188
G1 X127.307 Y102.737 E0.0188
G1 X127.874 Y102.743 E0.0189
G1 X128.488 Y102.841 E0.0207
G1 X129.084 Y103.035 E0.0208
G1 X129.589 Y103.289 E0.0188
G1 X130.048 Y103.605 E0.0185
G1 X130.366 Y103.888 E0.0142
G1 X142.581 Y116.327 E0.5798
G1 X142.940 Y116.762 E0.0188
G1 X143.235 Y117.244 E0.0188
G1 X143.459 Y117.763 E0.0188
G1 X143.608 Y118.307 E0.0188
G1 X143.678 Y118.867 E0.0188
G1 X143.669 Y119.434 E0.0189
G1 X143.580 Y119.992 E0.0188
G1 X143.413 Y120.531 E0.0188
G1 X143.199 Y120.993 E0.0169
G1 X142.930 Y121.421 E0.0168
G1 X142.463 Y121.965 E0.0238
G1 X113.649 Y149.740 E1.3311
G1 X113.210 Y150.096 E0.0188
G1 X112.726 Y150.386 E0.0188
G1 X112.204 Y150.605 E0.0188
G1 X111.658 Y150.749 E0.0188
G1 X111.096 Y150.814 E0.0188
G1 X110.533 Y150.799 E0.0187
G1 X109.974 Y150.706 E0.0188
G1 X109.438 Y150.536 E0.0187
G1 X108.981 Y150.319 E0.0168
G1 X108.553 Y150.044 E0.0169
G1 X108.080 Y149.638 E0.0207
G1 X107.675 Y149.161 E0.0208
G1 X107.404 Y148.730 E0.0169
G1 X107.191 Y148.272 E0.0168
G1 X106.999 Y147.618 E0.0227
G1 X106.926 Y147.063 E0.0186
G1 X106.924 Y146.611 E0.0150
G1 X107.022 Y145.921 E0.0232
G1 X107.223 Y145.288 E0.0221
G1 X123.881 Y105.141 E1.4457
G1 X124.113 Y104.688 E0.0169
G1 X124.397 Y104.271 E0.0168
G0 F7200 X124.726 Y104.498
G1 F1200 X125.069 Y104.122 E0.0169
G1 X125.460 Y103.798 E0.0169
G1 X125.895 Y103.532 E0.0170
G1 X126.362 Y103.330 E0.0169
G1 X126.853 Y103.197 E0.0169
G1 X127.357 Y103.134 E0.0169
G1 X127.867 Y103.143 E0.0170
G1 X128.367 Y103.222 E0.0168
G1 X128.907 Y103.394 E0.0188
G1 X129.364 Y103.619 E0.0169
G1 X129.782 Y103.904 E0.0168
G1 X130.100 Y104.187 E0.0142
G1 X142.274 Y116.584 E0.5779
G1 X142.600 Y116.973 E0.0169
G1 X142.869 Y117.405 E0.0169
G1 X143.074 Y117.871 E0.0169
G1 X143.211 Y118.360 E0.0169
G1 X143.278 Y118.864 E0.0169
G1 X143.274 Y119.373 E0.0169
G1 X143.197 Y119.876 E0.0169
G1 X143.050 Y120.363 E0.0169
G1 X142.836 Y120.825 E0.0169
G1 X142.593 Y121.206 E0.0150
G1 X142.185 Y121.677 E0.0207
G1 X113.395 Y149.431 E1.3301
G1 X113.002 Y149.754 E0.0169
G1 X112.568 Y150.018 E0.0169
G1 X112.099 Y150.219 E0.0170
G1 X111.609 Y150.352 E0.0169
G1 X111.104 Y150.414 E0.0169
G1 X110.596 Y150.404 E0.0169
G1 X110.093 Y150.324 E0.0169
G1 X109.607 Y150.173 E0.0169
G1 X109.197 Y149.982 E0.0150
G1 X108.769 Y149.707 E0.0169
G1 X108.343 Y149.336 E0.0188
G1 X108.014 Y148.948 E0.0169
G1 X107.743 Y148.517 E0.0169
G1 X107.555 Y148.106 E0.0150
G1 X107.395 Y147.564 E0.0188
G1 X107.326 Y147.061 E0.0169
G1 X107.324 Y146.609 E0.0150
G1 X107.404 Y146.041 E0.0191
G1 X107.592 Y145.441 E0.0209
G1 X124.237 Y105.323 E1.4446
G1 X124.469 Y104.870 E0.0169
G1 X124.726 Y104.498 E0.0150
G0 F7200 X125.055 Y104.725
G1 F1200 X125.362 Y104.394 E0.0150
G1 X125.713 Y104.108 E0.0151
G1 X126.101 Y103.875 E0.0151
G1 X126.518 Y103.699 E0.0151
G1 X126.955 Y103.584 E0.0150
G1 X127.404 Y103.531 E0.0150
G1 X127.856 Y103.543 E0.0150
G1 X128.302 Y103.617 E0.0150
G1 X128.733 Y103.754 E0.0150
G1 X129.141 Y103.951 E0.0151
G1 X129.516 Y104.203 E0.0150
G1 X129.834 Y104.486 E0.0142
G1 X141.969 Y116.843 E0.5760
G1 X142.262 Y117.187 E0.0150
G1 X142.504 Y117.569 E0.0150
G1 X142.690 Y117.982 E0.0151
G1 X142.815 Y118.416 E0.0150
G1 X142.878 Y118.864 E0.0150
G1 X142.878 Y119.316 E0.0150
G1 X142.813 Y119.764 E0.0151
G1 X142.686 Y120.198 E0.0150
G1 X142.499 Y120.610 E0.0150
G1 X142.256 Y120.991 E0.0150
G1 X141.907 Y121.389 E0.0176
G1 X113.138 Y149.124 E1.3291
G1 X112.791 Y149.414 E0.0150
G1 X112.407 Y149.652 E0.0150
G1 X111.992 Y149.834 E0.0151
G1 X111.557 Y149.955 E0.0150
G1 X111.108 Y150.014 E0.0151
G1 X110.656 Y150.009 E0.0150
G1 X110.209 Y149.941 E0.0150
G1 X109.776 Y149.810 E0.0150
G1 X109.366 Y149.619 E0.0150
G1 X108.987 Y149.372 E0.0150
G1 X108.646 Y149.075 E0.0150
G1 X108.351 Y148.732 E0.0150
G1 X108.107 Y148.351 E0.0150
G1 X107.919 Y147.940 E0.0150
G1 X107.791 Y147.506 E0.0150
G1 X107.726 Y147.059 E0.0150
G1 X107.724 Y146.607 E0.0150
G1 X107.786 Y146.159 E0.0150
G1 X107.961 Y145.594 E0.0197
G1 X124.595 Y105.502 E1.4437
G1 X124.798 Y105.097 E0.0151
G1 X125.055 Y104.725 E0.0150
;PRINTING: SWAPlane-Blue.stl
;PRINTING_ID: 0
G1 F2400 E-6.5000
G1 F600 Z0.500
G0 F7200 X127.896 Y108.506
;TYPE:WALL-INNER
;WIDTH:0.400
G1 F600 Z0.200
G1 F2400 E6.5000
G1 F1200 X138.265 Y119.065 E0.4922
G1 X114.110 Y142.352 E1.1159
G1 X113.910 Y142.216 E0.0080
G1 X127.896 Y108.506 E1.2139
G0 F7200 X127.758 Y107.795
G1 F1200 X138.530 Y118.764 E0.5113
G1 X138.834 Y119.073 E0.0144
G1 X113.005 Y143.973 E1.1933
G1 X112.804 Y143.837 E0.0081
G1 X127.758 Y107.795 E1.2978
G1 F2400 E-6.5000
G1 F600 Z0.500
G0 F7200 X127.620 Y107.084
;TYPE:WALL-OUTER
;WIDTH:0.400
G1 F600 Z0.200
G1 F2400 E6.5000
G1 F1200 X138.815 Y118.484 E0.5314
G1 X139.402 Y119.081 E0.0278
G1 X111.898 Y145.596 E1.2707
G1 X111.698 Y145.460 E0.0080
G1 X127.620 Y107.084 E1.3819
G0 F1800 X127.760 Y107.226
G1 F2400 E-6.5000
G1 F600 Z0.500
G0 F7200 X127.688 Y107.295
G0 X128.034 Y109.218
;TYPE:SOLID-FILL
;WIDTH:0.400
G1 F600 Z0.200
G1 F2400 E6.5000
G1 F1200 X137.697 Y119.057 E0.4587
G1 X115.076 Y140.865 E1.0451
G1 X114.941 Y140.774 E0.0054
G1 X128.034 Y109.218 E1.1363
G0 F7200 X128.172 Y109.928
G1 F1200 X137.129 Y119.049 E0.4252
G1 X115.893 Y139.521 E0.9811
G1 X128.172 Y109.928 E1.0656
G0 F7200 X128.310 Y110.638
G1 F1200 X136.561 Y119.041 E0.3917
G1 X116.998 Y137.899 E0.9038
G1 X128.310 Y110.638 E0.9817
G0 F7200 X128.323 Y111.070
G1 F1200 X136.296 Y119.043 E0.3750
G0 F7200 X136.009 Y119.321
G1 F1200 X128.158 Y111.470 E0.3693
G0 F7200 X127.991 Y111.869
G1 F1200 X135.721 Y119.599 E0.3636
G0 F7200 X135.432 Y119.876
G1 F1200 X127.825 Y112.269 E0.3578
G0 F7200 X127.660 Y112.669
G1 F1200 X135.145 Y120.154 E0.3521
G0 F7200 X134.857 Y120.432
G1 F1200 X127.494 Y113.069 E0.3463
G0 F7200 X127.328 Y113.469
G1 F1200 X134.568 Y120.709 E0.3405
G0 F7200 X134.280 Y120.987
G1 F1200 X127.162 Y113.868 E0.3348
G0 F7200 X126.997 Y114.269
G1 F1200 X133.993 Y121.265 E0.3291
G0 F7200 X133.704 Y121.542
G1 F1200 X126.830 Y114.668 E0.3233
G0 F7200 X126.664 Y115.068
G1 F1200 X133.416 Y121.820 E0.3176
G0 F7200 X133.129 Y122.098
G1 F1200 X126.499 Y115.468 E0.3119
G0 F7200 X126.333 Y115.867
G1 F1200 X132.840 Y122.375 E0.3061
G0 F7200 X132.552 Y122.653
G1 F1200 X126.167 Y116.268 E0.3003
G0 F7200 X126.001 Y116.667
G1 F1200 X132.265 Y122.931 E0.2946
G0 F7200 X131.976 Y123.208
G1 F1200 X125.835 Y117.067 E0.2889
G0 F7200 X125.669 Y117.467
G1 F1200 X131.688 Y123.486 E0.2831
G0 F7200 X131.400 Y123.764
G1 F1200 X125.503 Y117.866 E0.2774
G0 F7200 X125.338 Y118.267
G1 F1200 X131.112 Y124.041 E0.2716
G0 F7200 X130.824 Y124.319
G1 F1200 X125.172 Y118.666 E0.2659
G0 F7200 X125.005 Y119.066
G1 F1200 X130.536 Y124.597 E0.2602
G0 F7200 X130.248 Y124.874
G1 F1200 X124.840 Y119.466 E0.2544
G0 F7200 X124.674 Y119.865
G1 F1200 X129.960 Y125.152 E0.2487
G0 F7200 X129.672 Y125.430
G1 F1200 X124.508 Y120.266 E0.2429
G0 F7200 X124.342 Y120.665
G1 F1200 X129.384 Y125.707 E0.2372
G0 F7200 X129.096 Y125.985
G1 F1200 X124.177 Y121.065 E0.2314
G0 F7200 X124.010 Y121.465
G1 F1200 X128.808 Y126.263 E0.2257
G0 F7200 X128.520 Y126.540
G1 F1200 X123.844 Y121.864 E0.2199
G0 F7200 X123.679 Y122.265
G1 F1200 X128.232 Y126.818 E0.2142
G0 F7200 X127.944 Y127.096
G1 F1200 X123.513 Y122.664 E0.2084
G0 F7200 X123.347 Y123.064
G1 F1200 X127.656 Y127.373 E0.2027
G0 F7200 X127.368 Y127.651
G1 F1200 X123.181 Y123.464 E0.1969
G0 F7200 X123.015 Y123.863
G1 F1200 X127.080 Y127.929 E0.1912
G0 F7200 X126.792 Y128.206
G1 F1200 X122.849 Y124.264 E0.1854
G0 F7200 X122.683 Y124.663
G1 F1200 X126.504 Y128.484 E0.1797
G0 F7200 X126.216 Y128.762
G1 F1200 X122.518 Y125.063 E0.1740
G0 F7200 X122.352 Y125.463
G1 F1200 X125.927 Y129.039 E0.1682
G0 F7200 X125.640 Y129.317
G1 F1200 X122.185 Y125.862 E0.1625
G0 F7200 X122.020 Y126.263
G1 F1200 X125.352 Y129.594 E0.1567
G0 F7200 X125.063 Y129.872
G1 F1200 X121.854 Y126.662 E0.1510
G0 F7200 X121.688 Y127.062
G1 F1200 X124.776 Y130.150 E0.1453
G0 F7200 X124.488 Y130.427
G1 F1200 X121.522 Y127.462 E0.1395
G0 F7200 X121.357 Y127.862
G1 F1200 X124.199 Y130.705 E0.1337
G0 F7200 X123.911 Y130.983
G1 F1200 X121.191 Y128.262 E0.1280
G0 F7200 X121.024 Y128.661
G1 F1200 X123.624 Y131.260 E0.1223
G0 F7200 X123.335 Y131.538
G1 F1200 X120.859 Y129.061 E0.1165
G0 F7200 X120.693 Y129.461
G1 F1200 X123.047 Y131.816 E0.1107
G0 F7200 X122.760 Y132.093
G1 F1200 X120.527 Y129.861 E0.1050
G0 F7200 X120.361 Y130.261
G1 F1200 X122.471 Y132.371 E0.0992
G0 F7200 X122.183 Y132.648
G1 F1200 X120.195 Y130.660 E0.0935
G0 F7200 X120.029 Y131.060
G1 F1200 X121.896 Y132.926 E0.0878
G0 F7200 X121.607 Y133.204
G1 F1200 X119.863 Y131.460 E0.0820
G0 F7200 X119.698 Y131.860
G1 F1200 X121.319 Y133.481 E0.0762
G0 F7200 X121.031 Y133.759
G1 F1200 X119.532 Y132.260 E0.0705
G0 F7200 X119.365 Y132.659
G1 F1200 X120.743 Y134.037 E0.0648
G0 F7200 X120.455 Y134.314
G1 F1200 X119.200 Y133.059 E0.0590
G0 F7200 X119.034 Y133.459
G1 F1200 X120.167 Y134.592 E0.0533
G0 F7200 X119.879 Y134.870
G1 F1200 X118.868 Y133.859 E0.0476
G0 F7200 X118.702 Y134.259
G1 F1200 X119.591 Y135.147 E0.0418
G0 F7200 X119.303 Y135.425
G1 F1200 X118.537 Y134.659 E0.0360
G0 F7200 X118.371 Y135.058
G1 F1200 X119.015 Y135.702 E0.0303
G0 F7200 X118.727 Y135.980
G1 F1200 X118.121 Y135.658 E0.0245
G1 X118.295 Y136.396 E0.0188
G1 X117.790 Y136.458 E0.0130
G1 X117.863 Y136.813 E0.0121
G1 F2400 E-6.5000
G1 F600 Z0.500
G0 F7200 X114.649 Y140.953
;TYPE:SOLID-FILL
;WIDTH:0.400
G1 F600 Z0.200
G1 F2400 E6.5000
G1 F1200 X114.809 Y141.396 E0.0143
G1 X114.400 Y141.553 E0.0085
G1 X114.378 Y141.813 E0.0087
G0 F7200 X113.885 Y142.453
G1 F1200 X113.941 Y142.791 E0.0094
G1 X113.430 Y142.846 E0.0133
G1 X113.509 Y143.207 E0.0123
G0 F7200 X112.544 Y143.940
G1 F1200 X112.783 Y144.462 E0.0180
G1 X112.295 Y144.539 E0.0122
G1 X112.352 Y144.879 E0.0115
;PRINTING_TIME: 70
;REMAINING_TIME: 278
;LAYER:1
;Z:0.360
;HEIGHT:0.160
M106 S128
;PRINTING: SWAPlane-Blue.stl
;PRINTING_ID: 0
G1 F2400 E-6.5000
G1 F600 Z0.660
G0 F600 Z0.360
G0 F7200 X127.896 Y108.506
;TYPE:WALL-INNER
;WIDTH:0.400
G1 F600 Z0.360
G1 F2400 E6.5000
G1 F1350 X137.275 Y118.056 E0.3562
G1 X138.266 Y119.065 E0.0376
G1 X114.110 Y142.352 E0.8928
G1 X113.910 Y142.216 E0.0064
G1 X127.896 Y108.506 E0.9711
G0 F7200 X127.758 Y107.795
G1 F1350 X137.560 Y117.776 E0.3722
G1 X138.834 Y119.073 E0.0484
G1 X113.005 Y143.973 E0.9546
G1 X112.804 Y143.837 E0.0065
G1 X127.758 Y107.795 E1.0383
G1 F2400 E-6.5000
G1 F600 Z0.660
G0 F7200 X127.620 Y107.084
;TYPE:WALL-OUTER
;WIDTH:0.400
G1 F600 Z0.360
G1 F2400 E6.5000
G1 F1350 X137.845 Y117.496 E0.3883
G1 X139.402 Y119.081 E0.0591
G1 X111.898 Y145.596 E1.0165
G1 X111.698 Y145.460 E0.0064
G1 X127.620 Y107.084 E1.1055
G0 F1800 X127.760 Y107.226
G0 F7200 X127.688 Y107.295
G0 X128.034 Y109.218
;TYPE:SOLID-FILL
;WIDTH:0.400
G1 F1800 X136.989 Y118.336 E0.3401
G1 X137.698 Y119.057 E0.0269
G1 X115.076 Y140.865 E0.8361
G1 X114.941 Y140.774 E0.0043
G1 X128.034 Y109.218 E0.9091
G0 F7200 X128.172 Y109.928
G1 F1800 X136.704 Y118.616 E0.3240
G1 X137.130 Y119.049 E0.0162
G1 X115.893 Y139.521 E0.7849
G1 X128.172 Y109.928 E0.8525
G0 F7200 X128.310 Y110.638
G1 F1800 X136.419 Y118.896 E0.3080
G1 X136.562 Y119.041 E0.0054
G1 X116.998 Y137.900 E0.7230
G1 X128.310 Y110.638 E0.7854
G0 F7200 X128.489 Y111.078
G1 F1800 X128.201 Y111.365 E0.0108
G0 F7200 X128.769 Y111.364
G1 F1800 X127.801 Y112.332 E0.0364
G0 F7200 X127.399 Y113.299
G1 F1800 X129.049 Y111.649 E0.0621
G0 F7200 X129.329 Y111.935
G1 F1800 X126.998 Y114.266 E0.0877
G0 F7200 X126.597 Y115.232
G1 F1800 X129.610 Y112.219 E0.1134
G0 F7200 X129.890 Y112.505
G1 F1800 X126.196 Y116.199 E0.1390
G0 F7200 X125.795 Y117.166
G1 F1800 X130.170 Y112.791 E0.1646
G0 F7200 X130.451 Y113.076
G1 F1800 X125.394 Y118.133 E0.1903
G0 F7200 X124.993 Y119.100
G1 F1800 X130.731 Y113.361 E0.2159
G0 F7200 X131.011 Y113.647
G1 F1800 X124.592 Y120.066 E0.2415
G0 F7200 X124.191 Y121.033
G1 F1800 X131.292 Y113.932 E0.2672
G0 F7200 X131.572 Y114.218
G1 F1800 X123.789 Y122.000 E0.2929
G0 F7200 X123.388 Y122.967
G1 F1800 X131.852 Y114.503 E0.3185
G0 F7200 X132.132 Y114.788
G1 F1800 X122.987 Y123.933 E0.3441
G0 F7200 X122.586 Y124.900
G1 F1800 X132.412 Y115.074 E0.3697
G0 F7200 X132.693 Y115.359
G1 F1800 X122.185 Y125.867 E0.3954
G0 F7200 X121.784 Y126.834
G1 F1800 X132.973 Y115.645 E0.4210
G0 F7200 X133.254 Y115.930
G1 F1800 X121.383 Y127.801 E0.4467
G0 F7200 X120.982 Y128.767
G1 F1800 X133.534 Y116.215 E0.4723
G0 F7200 X133.814 Y116.501
G1 F1800 X120.580 Y129.735 E0.4980
G0 F7200 X120.179 Y130.701
G1 F1800 X134.095 Y116.786 E0.5236
G0 F7200 X134.375 Y117.072
G1 F1800 X119.778 Y131.668 E0.5493
G0 F7200 X119.378 Y132.634
G1 F1800 X134.655 Y117.357 E0.5749
G0 F7200 X134.935 Y117.642
G1 F1800 X118.977 Y133.601 E0.6005
G0 F7200 X118.575 Y134.568
G1 F1800 X135.215 Y117.928 E0.6262
G0 F7200 X135.496 Y118.213
G1 F1800 X118.174 Y135.535 E0.6518
G0 F7200 X117.773 Y136.502
G1 F1800 X135.776 Y118.499 E0.6774
G0 F7200 X136.057 Y118.784
G1 F1800 X122.375 Y132.465 E0.5148
G1 F2400 E-6.5000
G1 F600 Z0.660
G0 F7200 X114.951 Y141.021
;TYPE:SOLID-FILL
;WIDTH:0.400
G1 F600 Z0.360
G1 F2400 E6.5000
G1 F1800 X114.388 Y141.583 E0.0212
G0 F7200 X114.004 Y142.533
G1 F1800 X113.247 Y143.290 E0.0285
G0 F7200 X112.591 Y143.946
G1 F1800 X112.507 Y144.031 E0.0032
G0 F7200 X112.929 Y144.174
G1 F1800 X112.106 Y144.997 E0.0310
;PRINTING_TIME: 107
;REMAINING_TIME: 241
;LAYER:2
;Z:0.520
;HEIGHT:0.160
;PRINTING: SWAPlane-Blue.stl
;PRINTING_ID: 0
G1 F2400 E-6.5000
G1 F600 Z0.820
G0 F600 Z0.520
G0 F7200 X127.896 Y108.506
;TYPE:WALL-INNER
;WIDTH:0.400
G1 F600 Z0.520
G1 F2400 E6.5000
G1 F1500 X136.304 Y117.067 E0.3193
G1 X138.266 Y119.065 E0.0745
G1 X114.110 Y142.352 E0.8928
G1 X113.910 Y142.216 E0.0064
G1 X127.896 Y108.506 E0.9711
G0 F7200 X127.758 Y107.795
G1 F1500 X136.589 Y116.787 E0.3353
G1 X138.834 Y119.073 E0.0853
G1 X113.005 Y143.973 E0.9546
G1 X112.804 Y143.837 E0.0065
G1 X127.758 Y107.795 E1.0383
G1 F2400 E-6.5000
G1 F600 Z0.820
G0 F7200 X127.620 Y107.084
;TYPE:WALL-OUTER
;WIDTH:0.400
G1 F600 Z0.520
G1 F2400 E6.5000
G1 F1500 X136.874 Y116.507 E0.3514
G1 X139.402 Y119.081 E0.0960
G1 X111.898 Y145.596 E1.0165
G1 X111.698 Y145.460 E0.0064
G1 X127.620 Y107.084 E1.1055
G0 F1800 X127.760 Y107.226
G0 F7200 X127.688 Y107.295
G0 X128.034 Y109.218
;TYPE:SOLID-FILL
;WIDTH:0.400
G1 F2400 X136.018 Y117.347 E0.3032
G1 X137.698 Y119.057 E0.0638
G1 X115.076 Y140.865 E0.8361
G1 X114.941 Y140.774 E0.0043
G1 X128.034 Y109.218 E0.9091
G0 F7200 X128.172 Y109.928
G1 F2400 X135.733 Y117.627 E0.2871
