;Sliced by ideaMaker 4.3.1.6452, 2023-01-24 11:02:41 UTC-0600
;Dimension: 250.000 255.000 265.000 0.400
;Plate Shape: 0
;Origin Center: 0
;Extruder Offset #1: 25.000 0.000
;Filament Diameter #1: 1.750
;Filament Diameter #2: 1.750
;Filament Compensation #1: 100.00
;Filament Compensation #2: 90.00
;Filament Density #1: 1240.00
;Filament Density #2: 1240.00
;Filament Type #1: PLA
;Filament Type #2: 
;Filament Name #1: [Raise3D] PLA 1.75mm
;Filament Name #2: 
;Firmware: Marlin
;Bounding Box: 96.637 153.363 102.550 152.461 0.000 9.960
;Model Gap: 0.000
M92 E415.00000
M221 T0 S100.00
M140 S60.00
M190 S60.00
M104 T0 S200.00
M109 T0 S200.00
T0
G21 ;metric values
G90 ;absolute positioning
M82 ;set extruder to absolute mode
M107 ;start with the fan off
G28; Fahr zum Nullpunkt
G92 E0; setze den Extruder auf Null
G1 Z2.0 F3000; Druckkopf 2mm nach oben fahren
G1 X10.1 Y20 Z0.28 F5000.0; Fahre an die Startposition X10.1 Y20 Z0.28
G1 X10.1 Y200.0 Z0.28 F1500.0 E15; Ziehe eine Linie von der Startposition aus nach Y200
G1 X10.4 Y200.0 Z0.28 F5000.0; Bissl zur Seite bewegen
G1 X10.4 Y20 Z0.28 F1500.0 E30; eine 2. Linie nach vorne ziehen
G92 E0; setze den Extruder auf Null
G1 Z2.0 F3000; Fahr die Düse 2mm nach oben
M117 Printing...
G5
;TOTAL_NUM: 1
;PRINTING_TIME: 0
;REMAINING_TIME: 1989
M83
;LAYER:0
;Z:0.200
;HEIGHT:0.200
M106 S0
M140 S60
M104 T0 S200
;PRINTING: NON-OBJECT
;PRINTING_ID: -1
G1 F2400 E-6.5000
G0 F7200 X110.602 Y106.365
G0 F600 Z0.200
;TYPE:SKIRT
;WIDTH:0.400
G1 F2400 E6.5000
G1 F1200 X110.975 Y106.020 E0.0169
G1 X111.489 Y105.666 E0.0208
G1 X112.051 Y105.395 E0.0208
G1 X112.535 Y105.243 E0.0169
G1 X113.152 Y105.140 E0.0208
G1 X113.717 Y105.132 E0.0188
G1 X114.222 Y105.193 E0.0169
G1 X114.712 Y105.316 E0.0168
G1 X115.287 Y105.549 E0.0206
G1 X115.821 Y105.870 E0.0207
G1 X116.215 Y106.192 E0.0169
G1 X116.607 Y106.613 E0.0191
G1 X117.035 Y107.260 E0.0258
G1 X120.046 Y112.973 E0.2148
G1 X129.158 Y103.696 E0.4325
G1 X129.497 Y103.396 E0.0151
G1 X130.066 Y103.023 E0.0226
G1 X130.576 Y102.791 E0.0186
G1 X131.008 Y102.657 E0.0150
G1 X131.683 Y102.550 E0.0227
G1 X132.248 Y102.550 E0.0188
G1 X132.806 Y102.628 E0.0187
G1 X133.351 Y102.785 E0.0189
G1 X133.816 Y102.991 E0.0169
G1 X134.249 Y103.252 E0.0168
G1 X134.771 Y103.684 E0.0225
G1 X135.112 Y104.063 E0.0170
G1 X135.430 Y104.531 E0.0188
G1 X135.645 Y104.958 E0.0159
G1 X153.082 Y146.987 E1.5134
G1 X153.252 Y147.520 E0.0186
G1 X153.334 Y147.964 E0.0150
G1 X153.363 Y148.587 E0.0207
G1 X153.296 Y149.207 E0.0207
G1 X153.170 Y149.700 E0.0169
G1 X152.983 Y150.170 E0.0168
G1 X152.640 Y150.760 E0.0227
G1 X152.286 Y151.195 E0.0187
G1 X151.959 Y151.507 E0.0150
G1 X151.404 Y151.904 E0.0227
G1 X150.900 Y152.155 E0.0187
G1 X150.366 Y152.334 E0.0187
G1 X149.923 Y152.422 E0.0150
G1 X149.362 Y152.461 E0.0187
G1 X148.664 Y152.397 E0.0233
G1 X148.007 Y152.224 E0.0226
G1 X99.247 Y134.595 E1.7245
G1 X98.760 Y134.377 E0.0177
G1 X98.326 Y134.110 E0.0169
G1 X97.847 Y133.712 E0.0207
G1 X97.506 Y133.335 E0.0169
G1 X97.187 Y132.870 E0.0188
G1 X96.892 Y132.254 E0.0227
G1 X96.730 Y131.711 E0.0188
G1 X96.647 Y131.157 E0.0186
G1 X96.637 Y130.705 E0.0150
G1 X96.707 Y130.089 E0.0206
G1 X96.835 Y129.597 E0.0169
G1 X97.102 Y128.968 E0.0227
G1 X97.369 Y128.534 E0.0169
G1 X97.727 Y128.097 E0.0188
G1 X98.097 Y127.752 E0.0168
G1 X98.555 Y127.428 E0.0187
G1 X98.904 Y127.236 E0.0132
G1 X106.533 Y123.581 E0.2814
G1 X109.587 Y108.286 E0.5188
G1 X109.744 Y107.742 E0.0188
G1 X109.950 Y107.277 E0.0169
G1 X110.211 Y106.845 E0.0168
G1 X110.602 Y106.365 E0.0206
G0 F7200 X110.874 Y106.659
G1 F1200 X111.247 Y106.314 E0.0169
G1 X111.714 Y105.997 E0.0188
G1 X112.174 Y105.776 E0.0170
G1 X112.604 Y105.637 E0.0150
G1 X113.161 Y105.540 E0.0188
G1 X113.669 Y105.529 E0.0169
G1 X114.174 Y105.590 E0.0169
G1 X114.612 Y105.703 E0.0150
G1 X115.083 Y105.893 E0.0169
G1 X115.570 Y106.182 E0.0188
G1 X115.922 Y106.465 E0.0150
G1 X116.314 Y106.886 E0.0191
G1 X116.681 Y107.446 E0.0223
G1 X119.947 Y113.644 E0.2330
G1 X129.423 Y103.996 E0.4498
G1 X129.762 Y103.696 E0.0151
G1 X130.234 Y103.386 E0.0188
G1 X130.695 Y103.173 E0.0169
G1 X131.127 Y103.039 E0.0150
G1 X131.686 Y102.950 E0.0188
G1 X132.195 Y102.946 E0.0169
G1 X132.698 Y103.013 E0.0169
G1 X133.189 Y103.151 E0.0170
G1 X133.654 Y103.357 E0.0169
G1 X134.040 Y103.593 E0.0150
G1 X134.474 Y103.952 E0.0187
G1 X134.815 Y104.331 E0.0170
G1 X135.097 Y104.753 E0.0169
G1 X135.286 Y105.135 E0.0142
G1 X152.702 Y147.111 E1.5115
G1 X152.859 Y147.593 E0.0169
G1 X152.941 Y148.037 E0.0150
G1 X152.965 Y148.547 E0.0170
G1 X152.908 Y149.108 E0.0188
G1 X152.782 Y149.601 E0.0169
G1 X152.612 Y150.020 E0.0150
G1 X152.328 Y150.510 E0.0188
G1 X152.010 Y150.906 E0.0169
G1 X151.683 Y151.218 E0.0150
G1 X151.223 Y151.547 E0.0188
G1 X150.770 Y151.777 E0.0169
G1 X150.288 Y151.942 E0.0169
G1 X149.845 Y152.030 E0.0150
G1 X149.337 Y152.062 E0.0169
G1 X148.765 Y152.010 E0.0191
G1 X148.143 Y151.848 E0.0214
G1 X99.383 Y134.219 E1.7245
G1 X98.970 Y134.036 E0.0150
G1 X98.536 Y133.769 E0.0169
G1 X98.144 Y133.444 E0.0169
G1 X97.803 Y133.067 E0.0169
G1 X97.518 Y132.646 E0.0169
G1 X97.274 Y132.137 E0.0188
G1 X97.125 Y131.650 E0.0169
G1 X97.047 Y131.148 E0.0169
G1 X97.037 Y130.696 E0.0150
G1 X97.094 Y130.190 E0.0169
G1 X97.222 Y129.698 E0.0169
G1 X97.443 Y129.178 E0.0188
G1 X97.710 Y128.744 E0.0169
G1 X98.035 Y128.353 E0.0169
G1 X98.368 Y128.047 E0.0150
G1 X98.784 Y127.756 E0.0169
G1 X99.077 Y127.597 E0.0111
G1 X106.886 Y123.856 E0.2880
G1 X109.972 Y108.394 E0.5244
G1 X110.110 Y107.904 E0.0169
G1 X110.316 Y107.439 E0.0169
G1 X110.552 Y107.054 E0.0150
G1 X110.874 Y106.659 E0.0169
G0 F7200 X111.182 Y106.914
G1 F1200 X111.516 Y106.610 E0.0150
G1 X111.890 Y106.356 E0.0150
G1 X112.297 Y106.157 E0.0151
G1 X112.727 Y106.018 E0.0150
G1 X113.172 Y105.940 E0.0150
G1 X113.625 Y105.927 E0.0151
G1 X114.074 Y105.977 E0.0150
G1 X114.512 Y106.090 E0.0150
G1 X114.930 Y106.263 E0.0150
G1 X115.319 Y106.494 E0.0150
G1 X115.671 Y106.777 E0.0150
G1 X115.980 Y107.107 E0.0150
G1 X116.327 Y107.632 E0.0209
G1 X119.848 Y114.315 E0.2512
G1 X129.688 Y104.296 E0.4671
G1 X130.027 Y103.996 E0.0151
G1 X130.405 Y103.748 E0.0150
G1 X130.814 Y103.555 E0.0150
G1 X131.246 Y103.421 E0.0150
G1 X131.692 Y103.350 E0.0150
G1 X132.145 Y103.343 E0.0151
G1 X132.593 Y103.399 E0.0150
G1 X133.030 Y103.518 E0.0151
G1 X133.445 Y103.698 E0.0150
G1 X133.831 Y103.934 E0.0150
G1 X134.179 Y104.222 E0.0150
G1 X134.484 Y104.556 E0.0150
G1 X134.738 Y104.930 E0.0150
G1 X134.927 Y105.312 E0.0142
G1 X152.323 Y147.237 E1.5097
G1 X152.466 Y147.666 E0.0150
G1 X152.548 Y148.110 E0.0150
G1 X152.565 Y148.562 E0.0150
G1 X152.520 Y149.012 E0.0150
G1 X152.411 Y149.451 E0.0150
G1 X152.241 Y149.870 E0.0150
G1 X152.014 Y150.262 E0.0151
G1 X151.734 Y150.617 E0.0150
G1 X151.407 Y150.929 E0.0150
G1 X151.039 Y151.192 E0.0150
G1 X150.637 Y151.400 E0.0151
G1 X150.210 Y151.550 E0.0151
G1 X149.767 Y151.638 E0.0150
G1 X149.315 Y151.663 E0.0151
G1 X148.865 Y151.623 E0.0150
G1 X148.279 Y151.472 E0.0201
G1 X99.545 Y133.853 E1.7236
G1 X99.132 Y133.670 E0.0150
G1 X98.748 Y133.430 E0.0151
G1 X98.402 Y133.138 E0.0151
G1 X98.101 Y132.801 E0.0150
G1 X97.851 Y132.425 E0.0150
G1 X97.656 Y132.017 E0.0150
G1 X97.520 Y131.585 E0.0151
G1 X97.447 Y131.139 E0.0150
G1 X97.437 Y130.687 E0.0150
G1 X97.491 Y130.238 E0.0150
G1 X97.608 Y129.801 E0.0150
G1 X97.785 Y129.385 E0.0150
G1 X98.019 Y128.998 E0.0150
G1 X98.306 Y128.648 E0.0151
G1 X98.639 Y128.342 E0.0150
G1 X99.011 Y128.085 E0.0150
G1 X99.250 Y127.958 E0.0090
G1 X107.239 Y124.131 E0.2946
G1 X110.358 Y108.499 E0.5302
G1 X110.477 Y108.063 E0.0150
G1 X110.657 Y107.648 E0.0150
G1 X110.893 Y107.263 E0.0150
G1 X111.182 Y106.914 E0.0151
;PRINTING: SWAPlane-Button-Black.stl
;PRINTING_ID: 0
G1 F2400 E-6.5000
G1 F600 Z0.500
G0 F7200 X119.727 Y136.794
;TYPE:WALL-INNER
;WIDTH:0.400
G1 F600 Z0.200
G1 F2400 E6.5000
G1 F1200 X147.374 Y146.444 E0.9739
G1 X147.725 Y146.070 E0.0171
G1 X148.199 Y147.214 E0.0412
G1 X148.065 Y147.354 E0.0064
G1 X119.628 Y137.073 E1.0057
G1 X119.727 Y136.794 E0.0098
G1 F2400 E-6.5000
G1 F600 Z0.500
G0 F7200 X103.400 Y130.846
G0 X103.371 Y130.156
G0 X111.045 Y126.516
G0 X111.094 Y126.603
;TYPE:WALL-OUTER
;WIDTH:0.400
G1 F600 Z0.200
G1 F2400 E6.5000
G1 F1200 X104.572 Y129.504 E0.2374
G1 X104.449 Y129.238 E0.0097
G1 X110.241 Y126.463 E0.2136
G1 X113.520 Y110.025 E0.5575
G1 X113.729 Y109.994 E0.0070
G1 X119.011 Y120.020 E0.3769
G1 X131.902 Y106.894 E0.6119
G1 X148.916 Y147.898 E1.4765
G1 X148.782 Y148.039 E0.0065
G1 X101.391 Y130.905 E1.6761
G1 X101.381 Y130.707 E0.0066
G1 X102.914 Y129.973 E0.0565
G1 X102.936 Y130.509 E0.0178
G1 X147.260 Y145.981 E1.5615
G1 X147.438 Y145.791 E0.0087
G1 X131.554 Y108.359 E1.3524
G1 X118.731 Y121.246 E0.6047
G1 X114.011 Y111.500 E0.3602
G1 X113.722 Y111.540 E0.0097
G1 X111.094 Y126.603 E0.5086
G0 F1800 X110.912 Y126.684
G1 F2400 E-6.5000
G1 F600 Z0.500
G0 F7200 X110.873 Y126.592
G0 X104.319 Y129.458
;TYPE:WALL-OUTER
;WIDTH:0.676
G1 F600 Z0.200
G1 F2400 E6.5000
G1 F1200 X103.125 Y130.010 E0.0739
G0 F7200 X102.675 Y130.308
;TYPE:SOLID-FILL
;WIDTH:0.528
G1 F1200 X102.601 Y130.456 E0.0073
;WIDTH:0.593
G1 X102.527 Y130.604 E0.0082
G1 X102.454 Y130.753 E0.0082
G1 X102.660 Y130.887 E0.0121
G1 X106.864 Y132.380 E0.2200
G1 X111.069 Y133.874 E0.2200
;WIDTH:0.689
G1 X115.274 Y135.368 E0.2557
G1 X119.479 Y136.862 E0.2557
G1 F2400 E-6.5000
G1 F600 Z0.500
G0 F7200 X103.400 Y130.846
G0 X103.374 Y130.226
G0 X110.659 Y126.576
;WIDTH:0.458
G1 F600 Z0.200
G1 F2400 E6.5000
G1 F1200 X113.203 Y112.965 E0.5273
G1 F2400 E-6.5000
G1 F600 Z0.500
G0 F7200 X113.501 Y111.864
G0 X114.156 Y111.773
G0 X115.239 Y113.429
;WIDTH:0.430
G1 F600 Z0.200
G1 F2400 E6.5000
G1 F1200 X118.787 Y120.448 E0.2812
G1 X118.849 Y120.538 E0.0039
G1 X119.056 Y120.448 E0.0081
;WIDTH:0.302
G1 X123.199 Y116.256 E0.1480
;WIDTH:0.379
G1 X127.343 Y112.064 E0.1858
G1 X131.487 Y107.873 E0.1857
;WIDTH:0.471
G1 X131.549 Y107.842 E0.0027
G1 X131.611 Y107.811 E0.0027
;WIDTH:0.561
G1 X131.673 Y107.780 E0.0032
G1 X131.736 Y107.750 E0.0033
G1 X131.845 Y107.912 E0.0091
;WIDTH:0.485
G1 X147.727 Y145.760 E1.6553
G1 F2400 E-6.5000
G1 F600 Z0.500
G0 F7200 X131.592 Y108.163
G0 X118.764 Y121.049
G0 X114.311 Y111.750
G0 X113.656 Y111.841
G0 X113.258 Y112.975
;TYPE:SOLID-FILL
;WIDTH:0.400
G1 F600 Z0.200
G1 F2400 E6.5000
G1 F1200 X113.252 Y112.687 E0.0048
G1 X113.341 Y112.210 E0.0047
G1 X113.430 Y111.734 E0.0042
G1 X113.650 Y111.387 E0.0038
G1 X113.738 Y110.910 E0.0155
G1 X113.625 Y110.514 E0.0137
G1 F2400 E-6.5000
G1 F600 Z0.500
G0 F7200 X114.408 Y111.862
G1 F600 Z0.200
G1 F2400 E6.5000
G1 F1200 X114.576 Y112.031 E0.0079
G0 F7200 X114.940 Y112.960
G1 F1200 X115.206 Y113.226 E0.0125
G1 F2400 E-6.5000
G1 F600 Z0.500
G0 F7200 X118.982 Y120.217
G0 X131.592 Y108.163
G0 X147.510 Y145.529
G0 X147.101 Y145.965
G0 X139.689 Y144.042
;TYPE:SOLID-FILL
;WIDTH:0.221
G1 F600 Z0.200
G1 F2400 E6.5000
G1 F1200 X143.541 Y145.411 E0.0751
G1 X147.394 Y146.781 E0.0751
;WIDTH:0.317
G1 X147.470 Y146.782 E0.0020
G1 X147.546 Y146.784 E0.0020
;WIDTH:0.374
G1 X147.663 Y146.755 E0.0037
G1 X147.780 Y146.727 E0.0037
G0 F7200 X147.867 Y147.018
;TYPE:SOLID-FILL
;WIDTH:0.400
G1 F1200 X147.925 Y147.076 E0.0027
G1 F2400 E-6.5000
G1 F600 Z0.500
G0 F7200 X139.086 Y143.894
G1 F600 Z0.200
G1 F2400 E6.5000
G1 F1200 X138.541 Y143.632 E0.0096
G1 X137.664 Y143.321 E0.0087
G1 X136.786 Y143.009 E0.0079
G1 X135.908 Y142.696 E0.0071
G1 X135.031 Y142.385 E0.0063
G1 X134.153 Y142.073 E0.0054
G1 X133.669 Y141.871 E0.0174
G0 F7200 X132.883 Y141.651
G1 F1200 X132.800 Y141.568 E0.0039
G0 F7200 X131.997 Y141.331
G1 F1200 X131.931 Y141.265 E0.0031
G1 F2400 E-6.5000
G1 F600 Z0.500
G0 F7200 X148.279 Y147.431
G1 F600 Z0.200
G1 F2400 E6.5000
G1 F1200 X148.614 Y147.765 E0.0157
;PRINTING_TIME: 63
;REMAINING_TIME: 1926
;LAYER:1
;Z:0.360
;HEIGHT:0.160
M106 S128
;PRINTING: SWAPlane-Button-Black.stl
;PRINTING_ID: 0
G1 F2400 E-6.5000
G1 F600 Z0.660
G0 F600 Z0.360
G0 F7200 X119.727 Y136.794
;TYPE:WALL-INNER
;WIDTH:0.400
G1 F600 Z0.360
G1 F2400 E6.5000
G1 F1350 X147.374 Y146.444 E0.7792
G1 X147.725 Y146.070 E0.0136
G1 X148.199 Y147.214 E0.0329
G1 X148.065 Y147.354 E0.0052
G1 X119.628 Y137.073 E0.8046
G1 X119.727 Y136.794 E0.0079
G1 F2400 E-6.5000
G1 F600 Z0.660
G0 F7200 X103.400 Y130.846
G0 X103.371 Y130.156
G0 X111.045 Y126.516
G0 X111.094 Y126.603
;TYPE:WALL-OUTER
;WIDTH:0.400
G1 F600 Z0.360
G1 F2400 E6.5000
G1 F1350 X104.572 Y129.504 E0.1899
G1 X104.449 Y129.238 E0.0078
G1 X110.241 Y126.463 E0.1709
G1 X113.520 Y110.025 E0.4460
G1 X113.729 Y109.994 E0.0056
G1 X119.011 Y120.020 E0.3015
G1 X131.902 Y106.894 E0.4895
G1 X148.916 Y147.898 E1.1812
G1 X148.782 Y148.039 E0.0052
G1 X101.391 Y130.905 E1.3409
G1 X101.381 Y130.707 E0.0053
G1 X102.914 Y129.973 E0.0452
G1 X102.936 Y130.509 E0.0143
G1 X147.260 Y145.981 E1.2492
G1 X147.438 Y145.791 E0.0069
G1 X131.554 Y108.359 E1.0820
G1 X118.731 Y121.246 E0.4837
G1 X114.011 Y111.500 E0.2881
G1 X113.722 Y111.540 E0.0078
G1 X111.094 Y126.603 E0.4069
G0 F1800 X110.912 Y126.684
G1 F2400 E-6.5000
G1 F600 Z0.660
G0 F7200 X110.873 Y126.592
G0 X104.319 Y129.458
;TYPE:WALL-OUTER
;WIDTH:0.676
G1 F600 Z0.360
G1 F2400 E6.5000
G1 F1350 X103.125 Y130.010 E0.0592
G0 F7200 X102.675 Y130.308
;TYPE:SOLID-FILL
;WIDTH:0.528
G1 F1275 X102.601 Y130.456 E0.0058
;WIDTH:0.593
G1 X102.527 Y130.604 E0.0065
G1 X102.454 Y130.753 E0.0065
G1 X102.660 Y130.887 E0.0097
G1 X106.864 Y132.380 E0.1760
G1 X111.069 Y133.874 E0.1760
;WIDTH:0.689
G1 X115.274 Y135.368 E0.2045
G1 X119.479 Y136.862 E0.2045
G1 F2400 E-6.5000
G1 F600 Z0.660
G0 F7200 X103.400 Y130.846
G0 X103.374 Y130.226
G0 X110.659 Y126.576
;WIDTH:0.458
G1 F600 Z0.360
G1 F2400 E6.5000
G1 F1275 X113.203 Y112.965 E0.4219
G0 F7200 X113.501 Y111.864
G0 X114.156 Y111.773
G0 X115.239 Y113.429
;WIDTH:0.430
G1 F1275 X118.787 Y120.448 E0.2250
G1 X118.849 Y120.538 E0.0031
G1 X119.056 Y120.448 E0.0065
;WIDTH:0.302
G1 X123.199 Y116.256 E0.1184
;WIDTH:0.379
G1 X127.343 Y112.064 E0.1486
G1 X131.487 Y107.873 E0.1486
;WIDTH:0.471
G1 X131.549 Y107.842 E0.0022
G1 X131.611 Y107.811 E0.0022
;WIDTH:0.561
G1 X131.673 Y107.780 E0.0026
G1 X131.736 Y107.750 E0.0026
G1 X131.845 Y107.912 E0.0073
;WIDTH:0.485
G1 X147.727 Y145.760 E1.3242
G1 F2400 E-6.5000
G1 F600 Z0.660
G0 F7200 X147.004 Y146.068
G0 X103.400 Y130.846
G0 X103.374 Y130.226
G0 X109.883 Y126.855
;TYPE:SOLID-FILL
;WIDTH:0.400
G1 F600 Z0.360
G1 F2400 E6.5000
G1 F1800 X109.764 Y126.974 E0.0045
G0 F7200 X110.277 Y126.660
G0 X113.165 Y112.825
G1 F1800 X113.313 Y112.394 E0.0058
G1 X113.443 Y111.699 E0.0050
G1 X113.874 Y110.701 E0.0197
G1 X113.587 Y110.706 E0.0076
G1 F2400 E-6.5000
G1 F600 Z0.660
G0 F7200 X114.753 Y112.369
G1 F600 Z0.360
G1 F2400 E6.5000
G1 F1800 X114.817 Y112.587 E0.0025
G1 X115.007 Y112.963 E0.0029
G1 X115.056 Y113.197 E0.0064
G0 F7200 X118.982 Y120.217
G0 X131.592 Y108.163
G0 X147.510 Y145.529
G0 X147.101 Y145.965
G0 X139.689 Y144.042
;TYPE:SOLID-FILL
;WIDTH:0.221
G1 F1275 X143.541 Y145.411 E0.0601
G1 X147.394 Y146.781 E0.0601
;WIDTH:0.317
G1 X147.470 Y146.782 E0.0016
G1 X147.546 Y146.784 E0.0016
;WIDTH:0.374
G1 X147.663 Y146.755 E0.0030
G1 X147.780 Y146.727 E0.0030
G1 F2400 E-6.5000
G1 F600 Z0.660
G0 F7200 X139.710 Y143.980
;TYPE:SOLID-FILL
;WIDTH:0.400
G1 F600 Z0.360
G1 F2400 E6.5000
G1 F1800 X139.449 Y143.958 E0.0039
G1 X139.031 Y143.810 E0.0037
G1 X138.614 Y143.662 E0.0036
G1 X138.196 Y143.513 E0.0035
G1 X137.779 Y143.365 E0.0033
G1 X137.362 Y143.217 E0.0031
G1 X136.944 Y143.068 E0.0030
G1 X136.527 Y142.920 E0.0029
G1 X136.110 Y142.772 E0.0027
G1 X135.692 Y142.623 E0.0025
G1 X135.275 Y142.475 E0.0024
G1 X134.858 Y142.327 E0.0023
G1 X134.621 Y142.281 E0.0064
G1 F2400 E-6.5000
G1 F600 Z0.660
G0 F7200 X148.435 Y147.701
G1 F600 Z0.360
G1 F2400 E6.5000
G1 F1800 X148.562 Y147.573 E0.0048
;PRINTING_TIME: 94
;REMAINING_TIME: 1895
;LAYER:2
;Z:0.520
;HEIGHT:0.160
;PRINTING: SWAPlane-Button-Black.stl
;PRINTING_ID: 0
G1 F2400 E-6.5000
G1 F600 Z0.820
G0 F600 Z0.520
G0 F7200 X119.727 Y136.794
;TYPE:WALL-INNER
;WIDTH:0.400
G1 F600 Z0.520
G1 F2400 E6.5000
G1 F1500 X147.374 Y146.444 E0.7792
G1 X147.725 Y146.070 E0.0136
G1 X148.199 Y147.214 E0.0329
