;Sliced by ideaMaker 4.3.1.6452, 2023-01-24 06:14:01 UTC-0600
;Dimension: 250.000 255.000 265.000 0.400
;Plate Shape: 0
;Origin Center: 0
;Extruder Offset #1: 25.000 0.000
;Filament Diameter #1: 1.750
;Filament Diameter #2: 1.750
;Filament Compensation #1: 100.00
;Filament Compensation #2: 90.00
;Filament Density #1: 1240.00
;Filament Density #2: 1240.00
;Filament Type #1: PLA
;Filament Type #2: 
;Filament Name #1: [Raise3D] PLA 1.75mm
;Filament Name #2: 
;Firmware: Marlin
;Bounding Box: 94.167 155.823 100.042 154.959 0.000 1.960
;Model Gap: 0.000
M92 E415.00000
M221 T0 S100.00
M140 S60.00
M190 S60.00
M104 T0 S200.00
M109 T0 S200.00
T0
G21 ;metric values
G90 ;absolute positioning
M82 ;set extruder to absolute mode
M107 ;start with the fan off
G28; Fahr zum Nullpunkt
G92 E0; setze den Extruder auf Null
G1 Z2.0 F3000; Druckkopf 2mm nach oben fahren
G1 X10.1 Y20 Z0.28 F5000.0; Fahre an die Startposition X10.1 Y20 Z0.28
G1 X10.1 Y200.0 Z0.28 F1500.0 E15; Ziehe eine Linie von der Startposition aus nach Y200
G1 X10.4 Y200.0 Z0.28 F5000.0; Bissl zur Seite bewegen
G1 X10.4 Y20 Z0.28 F1500.0 E30; eine 2. Linie nach vorne ziehen
G92 E0; setze den Extruder auf Null
G1 Z2.0 F3000; Fahr die Düse 2mm nach oben
M117 Printing...
G5
;TOTAL_NUM: 1
;PRINTING_TIME: 0
;REMAINING_TIME: 887
M83
;LAYER:0
;Z:0.200
;HEIGHT:0.200
M106 S0
M140 S60
M104 T0 S200
;PRINTING: NON-OBJECT
;PRINTING_ID: -1
G1 F2400 E-6.5000
G0 F7200 X113.487 Y101.972
G0 F600 Z0.200
;TYPE:SKIRT
;WIDTH:0.400
G1 F2400 E6.5000
G1 F1200 X113.982 Y101.479 E0.0232
G1 X114.239 Y101.266 E0.0111
G1 X114.859 Y100.844 E0.0249
G1 X115.210 Y100.654 E0.0133
G1 X115.748 Y100.418 E0.0195
G1 X116.198 Y100.267 E0.0158
G1 X116.767 Y100.134 E0.0194
G1 X117.235 Y100.069 E0.0157
G1 X117.812 Y100.042 E0.0192
G1 X118.209 Y100.056 E0.0132
G1 X118.908 Y100.150 E0.0235
G1 X119.267 Y100.231 E0.0122
G1 X119.990 Y100.474 E0.0254
G1 X120.333 Y100.629 E0.0125
G1 X120.953 Y100.983 E0.0237
G1 X121.328 Y101.251 E0.0153
G1 X121.814 Y101.668 E0.0213
G1 X129.447 Y109.453 E0.3626
G1 X131.535 Y105.569 E0.1467
G1 X132.024 Y104.834 E0.0294
G1 X132.406 Y104.375 E0.0199
G1 X133.008 Y103.829 E0.0270
G1 X133.465 Y103.494 E0.0188
G1 X134.129 Y103.133 E0.0251
G1 X134.680 Y102.902 E0.0199
G1 X135.353 Y102.716 E0.0232
G1 X135.833 Y102.627 E0.0162
G1 X136.624 Y102.585 E0.0263
G1 X137.431 Y102.646 E0.0269
G1 X137.867 Y102.726 E0.0147
G1 X138.306 Y102.837 E0.0151
G1 X139.044 Y103.126 E0.0264
G1 X139.449 Y103.328 E0.0151
G1 X139.735 Y103.507 E0.0112
G1 X140.129 Y103.785 E0.0160
G1 X140.480 Y104.070 E0.0150
G1 X141.057 Y104.685 E0.0280
G1 X141.421 Y105.170 E0.0202
G1 X141.825 Y105.908 E0.0280
G1 X142.079 Y106.541 E0.0227
G1 X142.194 Y106.934 E0.0136
G1 X145.346 Y122.058 E0.5138
G1 X152.686 Y125.811 E0.2742
G1 X153.458 Y126.292 E0.0303
G1 X153.817 Y126.567 E0.0150
G1 X154.112 Y126.845 E0.0135
G1 X154.420 Y127.170 E0.0149
G1 X154.734 Y127.555 E0.0165
G1 X154.913 Y127.828 E0.0109
G1 X155.142 Y128.218 E0.0150
G1 X155.366 Y128.670 E0.0168
G1 X155.613 Y129.384 E0.0251
G1 X155.754 Y130.027 E0.0219
G1 X155.811 Y130.514 E0.0163
G1 X155.823 Y131.195 E0.0227
G1 X155.782 Y131.685 E0.0164
G1 X155.655 Y132.365 E0.0230
G1 X155.501 Y132.878 E0.0178
G1 X155.224 Y133.535 E0.0237
G1 X154.996 Y133.951 E0.0158
G1 X154.690 Y134.412 E0.0184
G1 X154.243 Y134.935 E0.0229
G1 X153.842 Y135.325 E0.0186
G1 X153.235 Y135.776 E0.0252
G1 X152.602 Y136.141 E0.0243
G1 X152.032 Y136.388 E0.0207
G1 X101.878 Y154.634 E1.7751
G1 X101.504 Y154.746 E0.0130
G1 X101.035 Y154.858 E0.0160
G1 X100.561 Y154.937 E0.0160
G1 X99.698 Y154.959 E0.0287
G1 X99.167 Y154.920 E0.0177
G1 X98.843 Y154.861 E0.0110
G1 X98.372 Y154.748 E0.0161
G1 X97.940 Y154.613 E0.0151
G1 X97.107 Y154.216 E0.0307
G1 X96.534 Y153.847 E0.0227
G1 X96.155 Y153.544 E0.0161
G1 X95.650 Y153.047 E0.0236
G1 X95.328 Y152.656 E0.0168
G1 X94.934 Y152.060 E0.0238
G1 X94.709 Y151.630 E0.0161
G1 X94.493 Y151.117 E0.0185
G1 X94.302 Y150.437 E0.0235
G1 X94.209 Y149.949 E0.0165
G1 X94.180 Y149.591 E0.0119
G1 X94.167 Y149.157 E0.0144
G1 X94.195 Y148.595 E0.0187
G1 X94.329 Y147.851 E0.0251
G1 X94.552 Y147.108 E0.0258
G1 X112.467 Y103.582 E1.5655
G1 X112.609 Y103.280 E0.0111
G1 X112.826 Y102.878 E0.0152
G1 X113.172 Y102.358 E0.0208
G1 X113.487 Y101.972 E0.0166
G0 F7200 X113.770 Y102.255
G1 F1200 X114.237 Y101.787 E0.0220
G1 X114.494 Y101.574 E0.0111
G1 X115.051 Y101.195 E0.0224
G1 X115.371 Y101.020 E0.0121
G1 X115.909 Y100.784 E0.0195
G1 X116.289 Y100.657 E0.0133
G1 X116.858 Y100.524 E0.0194
G1 X117.254 Y100.469 E0.0133
G1 X117.831 Y100.442 E0.0192
G1 X118.194 Y100.456 E0.0121
G1 X118.854 Y100.546 E0.0222
G1 X119.177 Y100.621 E0.0110
G1 X119.827 Y100.839 E0.0228
G1 X120.135 Y100.976 E0.0112
G1 X120.755 Y101.330 E0.0237
G1 X121.068 Y101.555 E0.0128
G1 X121.528 Y101.948 E0.0201
G1 X129.541 Y110.121 E0.3807
G1 X131.869 Y105.790 E0.1635
G1 X132.333 Y105.088 E0.0280
G1 X132.675 Y104.671 E0.0179
G1 X133.247 Y104.150 E0.0257
G1 X133.657 Y103.845 E0.0170
G1 X134.286 Y103.501 E0.0238
G1 X134.787 Y103.288 E0.0181
G1 X135.460 Y103.102 E0.0232
G1 X135.905 Y103.021 E0.0150
G1 X136.643 Y102.985 E0.0246
G1 X137.359 Y103.039 E0.0239
G1 X137.769 Y103.114 E0.0139
G1 X138.208 Y103.225 E0.0151
G1 X138.865 Y103.484 E0.0235
G1 X139.270 Y103.686 E0.0151
G1 X139.520 Y103.845 E0.0099
G1 X139.877 Y104.096 E0.0145
G1 X140.228 Y104.381 E0.0150
G1 X140.739 Y104.927 E0.0249
G1 X141.071 Y105.363 E0.0182
G1 X141.454 Y106.058 E0.0264
G1 X141.695 Y106.654 E0.0214
G1 X141.802 Y107.016 E0.0126
G1 X144.993 Y122.327 E0.5202
G1 X152.504 Y126.167 E0.2806
G1 X153.215 Y126.610 E0.0279
G1 X153.574 Y126.885 E0.0150
G1 X153.822 Y127.120 E0.0114
G1 X154.111 Y127.425 E0.0140
G1 X154.399 Y127.774 E0.0150
G1 X154.578 Y128.047 E0.0109
G1 X154.784 Y128.396 E0.0135
G1 X155.008 Y128.848 E0.0168
G1 X155.222 Y129.470 E0.0219
G1 X155.363 Y130.113 E0.0219
G1 X155.411 Y130.521 E0.0137
G1 X155.423 Y131.202 E0.0227
G1 X155.384 Y131.650 E0.0150
G1 X155.262 Y132.290 E0.0217
G1 X155.132 Y132.723 E0.0150
G1 X154.855 Y133.380 E0.0237
G1 X154.661 Y133.732 E0.0134
G1 X154.385 Y134.153 E0.0167
G1 X153.963 Y134.650 E0.0217
G1 X153.602 Y135.005 E0.0168
G1 X153.034 Y135.430 E0.0236
G1 X152.443 Y135.774 E0.0227
G1 X151.895 Y136.012 E0.0199
G1 X101.762 Y154.251 E1.7744
G1 X101.411 Y154.357 E0.0122
G1 X100.969 Y154.463 E0.0151
G1 X100.495 Y154.542 E0.0160
G1 X99.690 Y154.559 E0.0268
G1 X99.239 Y154.526 E0.0150
G1 X98.915 Y154.467 E0.0110
G1 X98.491 Y154.366 E0.0145
G1 X98.059 Y154.231 E0.0151
G1 X97.323 Y153.879 E0.0271
G1 X96.782 Y153.533 E0.0214
G1 X96.436 Y153.259 E0.0147
G1 X95.931 Y152.762 E0.0236
G1 X95.662 Y152.435 E0.0141
G1 X95.268 Y151.839 E0.0238
G1 X95.077 Y151.473 E0.0137
G1 X94.878 Y151.008 E0.0168
G1 X94.695 Y150.360 E0.0224
G1 X94.608 Y149.916 E0.0150
G1 X94.580 Y149.578 E0.0113
G1 X94.567 Y149.174 E0.0134
G1 X94.589 Y148.666 E0.0169
G1 X94.723 Y147.922 E0.0251
G1 X94.922 Y147.260 E0.0230
G1 X112.829 Y103.752 E1.5649
G1 X112.971 Y103.450 E0.0111
G1 X113.159 Y103.100 E0.0132
G1 X113.505 Y102.580 E0.0208
G1 X113.770 Y102.255 E0.0139
G0 F7200 X114.054 Y102.537
G1 F1200 X114.492 Y102.095 E0.0207
G1 X114.749 Y101.882 E0.0111
G1 X115.244 Y101.545 E0.0199
G1 X115.532 Y101.386 E0.0109
G1 X116.070 Y101.150 E0.0195
G1 X116.380 Y101.047 E0.0109
G1 X116.949 Y100.914 E0.0194
G1 X117.273 Y100.869 E0.0109
G1 X117.850 Y100.842 E0.0192
G1 X118.177 Y100.856 E0.0109
G1 X118.764 Y100.936 E0.0197
G1 X119.087 Y101.011 E0.0110
G1 X119.664 Y101.204 E0.0202
G1 X119.972 Y101.341 E0.0112
G1 X120.523 Y101.656 E0.0211
G1 X120.809 Y101.859 E0.0117
G1 X121.242 Y102.228 E0.0189
G1 X129.636 Y110.789 E0.3988
G1 X132.210 Y106.000 E0.1808
G1 X132.406 Y105.682 E0.0124
G1 X132.661 Y105.317 E0.0148
G1 X132.945 Y104.966 E0.0150
G1 X133.489 Y104.469 E0.0245
G1 X133.849 Y104.196 E0.0150
G1 X134.478 Y103.852 E0.0238
G1 X134.894 Y103.673 E0.0151
G1 X135.532 Y103.496 E0.0220
G1 X135.977 Y103.415 E0.0150
G1 X136.224 Y103.397 E0.0082
G1 X136.614 Y103.384 E0.0130
G1 X137.288 Y103.433 E0.0225
G1 X137.671 Y103.502 E0.0129
G1 X138.110 Y103.613 E0.0151
G1 X138.686 Y103.842 E0.0206
G1 X139.091 Y104.044 E0.0151
G1 X139.303 Y104.181 E0.0084
G1 X139.625 Y104.407 E0.0131
G1 X139.976 Y104.692 E0.0150
G1 X140.445 Y105.199 E0.0230
G1 X140.721 Y105.557 E0.0150
G1 X141.083 Y106.208 E0.0248
G1 X141.324 Y106.804 E0.0214
G1 X141.410 Y107.098 E0.0102
G1 X144.640 Y122.595 E0.5265
G1 X152.322 Y126.523 E0.2870
G1 X152.972 Y126.928 E0.0255
G1 X153.331 Y127.203 E0.0150
G1 X153.532 Y127.396 E0.0093
G1 X153.802 Y127.680 E0.0130
G1 X154.090 Y128.029 E0.0150
G1 X154.234 Y128.251 E0.0088
G1 X154.427 Y128.576 E0.0126
G1 X154.630 Y128.980 E0.0150
G1 X154.831 Y129.556 E0.0203
G1 X154.972 Y130.199 E0.0219
G1 X155.014 Y130.566 E0.0123
G1 X155.023 Y131.208 E0.0214
G1 X154.991 Y131.575 E0.0123
G1 X154.869 Y132.215 E0.0217
G1 X154.763 Y132.569 E0.0123
G1 X154.504 Y133.188 E0.0223
G1 X154.325 Y133.515 E0.0124
G1 X154.080 Y133.895 E0.0150
G1 X153.681 Y134.367 E0.0206
G1 X153.361 Y134.686 E0.0150
G1 X152.832 Y135.085 E0.0220
G1 X152.283 Y135.407 E0.0212
G1 X151.758 Y135.636 E0.0191
G1 X101.646 Y153.868 E1.7736
G1 X101.295 Y153.974 E0.0122
G1 X100.876 Y154.074 E0.0143
G1 X100.430 Y154.147 E0.0150
G1 X99.719 Y154.160 E0.0237
G1 X99.268 Y154.127 E0.0150
G1 X98.990 Y154.074 E0.0094
G1 X98.610 Y153.984 E0.0130
G1 X98.178 Y153.849 E0.0151
G1 X97.539 Y153.542 E0.0236
G1 X96.998 Y153.196 E0.0214
G1 X96.716 Y152.973 E0.0120
G1 X96.239 Y152.507 E0.0222
G1 X95.995 Y152.213 E0.0127
G1 X95.622 Y151.653 E0.0224
G1 X95.444 Y151.313 E0.0128
G1 X95.263 Y150.899 E0.0150
G1 X95.088 Y150.283 E0.0213
G1 X95.001 Y149.839 E0.0150
G1 X94.980 Y149.564 E0.0092
G1 X94.967 Y149.188 E0.0125
G1 X94.983 Y148.736 E0.0150
G1 X95.107 Y148.036 E0.0236
G1 X95.292 Y147.412 E0.0216
G1 X113.191 Y103.922 E1.5642
G1 X113.324 Y103.638 E0.0104
G1 X113.492 Y103.322 E0.0119
G1 X113.838 Y102.802 E0.0208
G1 X114.054 Y102.537 E0.0114
;PRINTING: SWAPlane-Box-Top-Silver.stl
;PRINTING_ID: 0
G1 F2400 E-6.5000
G1 F600 Z0.500
G0 F7200 X117.259 Y105.230
;TYPE:WALL-INNER
;WIDTH:0.400
G1 F600 Z0.200
G1 F2400 E6.5000
G1 F1200 X117.482 Y105.107 E0.0085
G1 X117.617 Y105.062 E0.0047
G1 X117.761 Y105.042 E0.0048
G1 X117.905 Y105.048 E0.0048
G1 X118.043 Y105.080 E0.0047
G1 X118.173 Y105.138 E0.0047
G1 X118.307 Y105.233 E0.0055
G1 X130.633 Y117.805 E0.5856
G1 X135.882 Y108.040 E0.3687
G1 X136.034 Y107.822 E0.0088
G1 X136.164 Y107.709 E0.0057
G1 X136.311 Y107.633 E0.0055
G1 X136.474 Y107.590 E0.0056
G1 X136.648 Y107.585 E0.0058
G1 X136.821 Y107.616 E0.0058
G1 X136.981 Y107.682 E0.0058
G1 X137.117 Y107.777 E0.0055
G1 X137.227 Y107.902 E0.0055
G1 X137.323 Y108.081 E0.0068
G1 X137.369 Y108.238 E0.0054
G1 X137.558 Y109.152 E0.0310
G1 X135.893 Y108.885 E0.0561
G1 X130.615 Y118.653 E0.3693
G1 X117.532 Y105.504 E0.6169
G1 X101.433 Y144.903 E1.4156
G1 X102.176 Y145.408 E0.0299
G1 X101.458 Y146.074 E0.0326
G1 X102.511 Y147.512 E0.0593
G1 X103.738 Y146.814 E0.0470
G1 X104.169 Y147.766 E0.0348
G1 X149.168 Y131.300 E1.5937
G1 X149.204 Y129.645 E0.0551
G1 X150.361 Y130.237 E0.0432
G1 X150.568 Y130.373 E0.0082
G1 X150.681 Y130.492 E0.0055
G1 X150.761 Y130.627 E0.0052
G1 X150.811 Y130.779 E0.0053
G1 X150.830 Y130.944 E0.0055
G1 X150.816 Y131.107 E0.0054
G1 X150.769 Y131.263 E0.0054
G1 X150.693 Y131.403 E0.0053
G1 X150.588 Y131.523 E0.0053
G1 X150.438 Y131.632 E0.0062
G1 X150.284 Y131.704 E0.0057
G1 X100.263 Y149.901 E1.7704
G1 X100.016 Y149.961 E0.0085
G1 X99.845 Y149.960 E0.0057
G1 X99.692 Y149.924 E0.0052
G1 X99.525 Y149.840 E0.0062
G1 X99.404 Y149.743 E0.0052
G1 X99.293 Y149.611 E0.0057
G1 X99.216 Y149.464 E0.0055
G1 X99.173 Y149.305 E0.0055
G1 X99.168 Y149.161 E0.0048
G1 X99.236 Y148.857 E0.0104
G1 X117.055 Y105.566 E1.5571
G1 X117.154 Y105.381 E0.0070
G1 X117.274 Y105.245 E0.0060
G1 X117.259 Y105.230 E0.0007
G0 F7200 X116.962 Y104.984
G1 F1200 X117.131 Y104.844 E0.0073
G1 X117.321 Y104.739 E0.0072
G1 X117.526 Y104.671 E0.0072
G1 X117.742 Y104.641 E0.0073
G1 X117.959 Y104.650 E0.0072
G1 X118.171 Y104.699 E0.0072
G1 X118.372 Y104.789 E0.0073
G1 X118.567 Y104.927 E0.0079
G1 X130.538 Y117.137 E0.5687
G1 X135.541 Y107.830 E0.3514
G1 X135.734 Y107.553 E0.0112
G1 X135.937 Y107.376 E0.0090
G1 X136.167 Y107.257 E0.0086
G1 X136.417 Y107.192 E0.0086
G1 X136.677 Y107.184 E0.0087
G1 X136.934 Y107.230 E0.0087
G1 X137.175 Y107.329 E0.0087
G1 X137.385 Y107.477 E0.0085
G1 X137.558 Y107.672 E0.0087
G1 X137.695 Y107.929 E0.0097
G1 X137.757 Y108.141 E0.0073
G1 X141.290 Y125.149 E0.5778
G1 X150.563 Y129.891 E0.3464
G1 X150.826 Y130.064 E0.0105
G1 X151.002 Y130.249 E0.0085
G1 X151.127 Y130.460 E0.0082
G1 X151.204 Y130.692 E0.0081
G1 X151.232 Y130.938 E0.0082
G1 X151.211 Y131.183 E0.0082
G1 X151.140 Y131.418 E0.0082
G1 X151.023 Y131.633 E0.0081
G1 X150.860 Y131.820 E0.0083
G1 X150.642 Y131.979 E0.0090
G1 X150.436 Y132.074 E0.0075
G1 X100.379 Y150.285 E1.7717
G1 X100.063 Y150.361 E0.0108
G1 X99.798 Y150.360 E0.0088
G1 X99.554 Y150.303 E0.0083
G1 X99.308 Y150.178 E0.0092
G1 X99.123 Y150.031 E0.0079
G1 X98.959 Y149.835 E0.0085
G1 X98.841 Y149.610 E0.0085
G1 X98.775 Y149.364 E0.0085
G1 X98.767 Y149.124 E0.0080
G1 X98.853 Y148.737 E0.0132
G1 X116.693 Y105.395 E1.5589
G1 X116.820 Y105.158 E0.0089
G1 X116.962 Y104.984 E0.0075
G1 F2400 E-6.5000
G1 F600 Z0.500
G0 F7200 X116.677 Y104.701
;TYPE:WALL-OUTER
;WIDTH:0.400
G1 F600 Z0.200
G1 F2400 E6.5000
G1 F1200 X116.904 Y104.512 E0.0098
G1 X117.160 Y104.371 E0.0097
G1 X117.435 Y104.280 E0.0096
G1 X117.723 Y104.240 E0.0097
G1 X118.013 Y104.252 E0.0097
G1 X118.299 Y104.318 E0.0098
G1 X118.571 Y104.440 E0.0099
G1 X118.827 Y104.621 E0.0104
G1 X130.443 Y116.469 E0.5519
G1 X135.200 Y107.620 E0.3342
G1 X135.434 Y107.284 E0.0136
G1 X135.710 Y107.043 E0.0122
G1 X136.023 Y106.881 E0.0117
G1 X136.360 Y106.794 E0.0116
G1 X136.706 Y106.783 E0.0115
G1 X137.047 Y106.844 E0.0115
G1 X137.368 Y106.976 E0.0115
G1 X137.653 Y107.176 E0.0116
G1 X137.889 Y107.442 E0.0118
G1 X138.067 Y107.778 E0.0126
G1 X138.145 Y108.044 E0.0092
G1 X141.643 Y124.880 E0.5719
G1 X150.764 Y129.545 E0.3407
G1 X151.084 Y129.755 E0.0127
G1 X151.323 Y130.006 E0.0115
G1 X151.493 Y130.293 E0.0111
G1 X151.597 Y130.606 E0.0110
G1 X151.634 Y130.933 E0.0109
G1 X151.606 Y131.259 E0.0109
G1 X151.511 Y131.573 E0.0109
G1 X151.353 Y131.863 E0.0110
G1 X151.132 Y132.117 E0.0112
G1 X150.845 Y132.326 E0.0118
G1 X150.588 Y132.444 E0.0094
G1 X100.494 Y150.669 E1.7730
G1 X100.110 Y150.761 E0.0131
G1 X99.751 Y150.760 E0.0119
G1 X99.416 Y150.681 E0.0114
G1 X99.091 Y150.517 E0.0121
G1 X98.842 Y150.319 E0.0106
G1 X98.624 Y150.058 E0.0113
G1 X98.466 Y149.756 E0.0113
G1 X98.377 Y149.423 E0.0115
G1 X98.366 Y149.093 E0.0110
G1 X98.442 Y148.695 E0.0135
G1 X98.480 Y148.592 E0.0037
G1 X116.331 Y105.225 E1.5598
G1 X116.485 Y104.935 E0.0109
G1 X116.677 Y104.701 E0.0101
G0 F1800 X116.830 Y104.573
G1 F2400 E-6.5000
G1 F600 Z0.500
G0 F7200 X116.894 Y104.650
G0 X130.471 Y116.667
G0 X136.239 Y109.586
G0 X136.383 Y109.608
G0 X137.546 Y110.531
;TYPE:WALL-INNER
;WIDTH:0.400
G1 F600 Z0.200
G1 F2400 E6.5000
G1 F1200 X137.834 Y110.476 E0.0098
G1 X140.937 Y125.418 E0.5076
G1 X148.996 Y129.539 E0.3011
G1 X148.876 Y129.799 E0.0095
G1 X140.281 Y126.242 E0.3094
G1 X137.546 Y110.531 E0.5304
G1 F2400 E-6.5000
G1 F600 Z0.500
G0 F7200 X136.748 Y109.668
G0 X134.237 Y109.812
G0 X130.471 Y116.667
G0 X117.674 Y106.214
G1 F600 Z0.200
G1 F2400 E6.5000
G1 F1200 X103.023 Y142.069 E1.2883
G1 X101.926 Y144.754 E0.0965
G1 X102.817 Y145.359 E0.0358
G1 X101.991 Y146.125 E0.0375
G1 X102.623 Y146.988 E0.0356
G1 X103.921 Y146.250 E0.0497
G1 X104.380 Y147.263 E0.0370
G1 X148.774 Y131.018 E1.5723
G1 X148.792 Y130.197 E0.0273
G1 X139.945 Y126.536 E0.3185
G1 X119.984 Y137.459 E0.7568
G1 X119.840 Y137.201 E0.0098
G1 X139.807 Y125.851 E0.7639
G1 X136.953 Y109.460 E0.5534
G1 X136.110 Y109.325 E0.0284
G1 X130.478 Y119.749 E0.3941
G1 X110.638 Y138.118 E0.8993
G1 X110.436 Y137.903 E0.0098
G1 X130.265 Y118.868 E0.9142
G1 X117.674 Y106.214 E0.5937
G1 F2400 E-6.5000
G1 F600 Z0.500
G0 F7200 X117.816 Y106.924
;TYPE:WALL-OUTER
;WIDTH:0.400
G1 F600 Z0.200
G1 F2400 E6.5000
G1 F1200 X103.393 Y142.220 E1.2682
