;Sliced by ideaMaker 4.3.1.6452, 2023-01-24 12:29:38 UTC-0600
;Dimension: 250.000 255.000 265.000 0.400
;Plate Shape: 0
;Origin Center: 0
;Extruder Offset #1: 25.000 0.000
;Filament Diameter #1: 1.750
;Filament Diameter #2: 1.750
;Filament Compensation #1: 100.00
;Filament Compensation #2: 90.00
;Filament Density #1: 1240.00
;Filament Density #2: 1240.00
;Filament Type #1: PLA
;Filament Type #2: 
;Filament Name #1: [Raise3D] PLA 1.75mm
;Filament Name #2: 
;Firmware: Marlin
;Bounding Box: 96.639 153.365 102.547 152.456 0.000 5.960
;Model Gap: 0.000
M92 E415.00000
M221 T0 S100.00
M140 S60.00
M190 S60.00
M104 T0 S200.00
M109 T0 S200.00
T0
G21 ;metric values
G90 ;absolute positioning
M82 ;set extruder to absolute mode
M107 ;start with the fan off
G28; Fahr zum Nullpunkt
G92 E0; setze den Extruder auf Null
G1 Z2.0 F3000; Druckkopf 2mm nach oben fahren
G1 X10.1 Y20 Z0.28 F5000.0; Fahre an die Startposition X10.1 Y20 Z0.28
G1 X10.1 Y200.0 Z0.28 F1500.0 E15; Ziehe eine Linie von der Startposition aus nach Y200
G1 X10.4 Y200.0 Z0.28 F5000.0; Bissl zur Seite bewegen
G1 X10.4 Y20 Z0.28 F1500.0 E30; eine 2. Linie nach vorne ziehen
G92 E0; setze den Extruder auf Null
G1 Z2.0 F3000; Fahr die Düse 2mm nach oben
M117 Printing...
G5
;TOTAL_NUM: 1
;PRINTING_TIME: 0
;REMAINING_TIME: 1397
M83
;LAYER:0
;Z:0.200
;HEIGHT:0.200
M106 S0
M140 S60
M104 T0 S200
;PRINTING: NON-OBJECT
;PRINTING_ID: -1
G1 F2400 E-6.5000
G0 F7200 X115.250 Y103.662
G0 F600 Z0.200
;TYPE:SKIRT
;WIDTH:0.400
G1 F2400 E6.5000
G1 F1200 X115.685 Y103.298 E0.0189
G1 X116.165 Y103.001 E0.0188
G1 X116.681 Y102.773 E0.0188
G1 X117.226 Y102.621 E0.0188
G1 X117.785 Y102.547 E0.0188
G1 X118.352 Y102.553 E0.0189
G1 X118.966 Y102.651 E0.0207
G1 X119.562 Y102.845 E0.0208
G1 X120.067 Y103.099 E0.0188
G1 X120.526 Y103.415 E0.0185
G1 X120.844 Y103.698 E0.0142
G1 X129.954 Y112.973 E0.4324
G1 X132.995 Y107.207 E0.2168
G1 X133.298 Y106.734 E0.0187
G1 X133.588 Y106.387 E0.0150
G1 X134.048 Y105.970 E0.0207
G1 X134.569 Y105.625 E0.0208
G1 X135.079 Y105.389 E0.0187
G1 X135.510 Y105.252 E0.0150
G1 X136.180 Y105.139 E0.0226
G1 X136.690 Y105.130 E0.0170
G1 X137.304 Y105.206 E0.0206
G1 X137.791 Y105.338 E0.0168
G1 X138.262 Y105.532 E0.0169
G1 X138.797 Y105.848 E0.0207
G1 X139.194 Y106.165 E0.0169
G1 X139.622 Y106.621 E0.0208
G1 X139.975 Y107.139 E0.0208
G1 X140.225 Y107.665 E0.0194
G1 X140.426 Y108.342 E0.0235
G1 X143.467 Y123.581 E0.5168
G1 X151.121 Y127.249 E0.2823
G1 X151.635 Y127.552 E0.0198
G1 X152.076 Y127.904 E0.0188
G1 X152.463 Y128.313 E0.0187
G1 X152.729 Y128.679 E0.0150
G1 X152.998 Y129.173 E0.0187
G1 X153.230 Y129.812 E0.0226
G1 X153.322 Y130.255 E0.0150
G1 X153.365 Y130.930 E0.0225
G1 X153.330 Y131.381 E0.0150
G1 X153.214 Y131.933 E0.0188
G1 X153.022 Y132.463 E0.0187
G1 X152.693 Y133.063 E0.0228
G1 X152.384 Y133.468 E0.0169
G1 X152.028 Y133.827 E0.0168
G1 X151.487 Y134.234 E0.0225
G1 X151.049 Y134.473 E0.0166
G1 X150.727 Y134.605 E0.0116
G1 X101.967 Y152.233 E1.7245
G1 X101.389 Y152.389 E0.0199
G1 X100.832 Y152.456 E0.0187
G1 X100.379 Y152.453 E0.0151
G1 X99.764 Y152.366 E0.0207
G1 X99.221 Y152.203 E0.0189
G1 X98.660 Y151.941 E0.0206
G1 X98.280 Y151.695 E0.0151
G1 X97.768 Y151.253 E0.0225
G1 X97.438 Y150.868 E0.0169
G1 X97.159 Y150.442 E0.0169
G1 X96.915 Y149.935 E0.0187
G1 X96.718 Y149.277 E0.0228
G1 X96.643 Y148.723 E0.0186
G1 X96.639 Y148.271 E0.0150
G1 X96.735 Y147.578 E0.0233
G1 X96.939 Y146.931 E0.0226
G1 X114.359 Y104.951 E1.5117
G1 X114.591 Y104.498 E0.0169
G1 X114.875 Y104.081 E0.0168
G1 X115.250 Y103.662 E0.0187
G0 F7200 X115.546 Y103.931
G1 F1200 X115.939 Y103.607 E0.0169
G1 X116.373 Y103.342 E0.0169
G1 X116.840 Y103.140 E0.0169
G1 X117.331 Y103.007 E0.0169
G1 X117.835 Y102.944 E0.0169
G1 X118.345 Y102.953 E0.0170
G1 X118.845 Y103.032 E0.0168
G1 X119.385 Y103.204 E0.0188
G1 X119.842 Y103.429 E0.0169
G1 X120.260 Y103.714 E0.0168
G1 X120.578 Y103.997 E0.0142
G1 X130.053 Y113.644 E0.4497
G1 X133.333 Y107.421 E0.2340
G1 X133.605 Y106.991 E0.0169
G1 X133.895 Y106.644 E0.0150
G1 X134.271 Y106.302 E0.0169
G1 X134.740 Y105.987 E0.0188
G1 X135.200 Y105.770 E0.0169
G1 X135.631 Y105.633 E0.0150
G1 X136.187 Y105.539 E0.0188
G1 X136.697 Y105.530 E0.0170
G1 X137.202 Y105.593 E0.0169
G1 X137.639 Y105.708 E0.0150
G1 X138.110 Y105.902 E0.0169
G1 X138.547 Y106.161 E0.0169
G1 X138.944 Y106.478 E0.0169
G1 X139.293 Y106.849 E0.0169
G1 X139.615 Y107.314 E0.0188
G1 X139.842 Y107.780 E0.0172
G1 X140.034 Y108.420 E0.0222
G1 X143.114 Y123.856 E0.5235
G1 X150.948 Y127.610 E0.2889
G1 X151.388 Y127.866 E0.0169
G1 X151.787 Y128.180 E0.0169
G1 X152.139 Y128.548 E0.0169
G1 X152.405 Y128.914 E0.0150
G1 X152.646 Y129.362 E0.0169
G1 X152.838 Y129.893 E0.0188
G1 X152.930 Y130.336 E0.0150
G1 X152.966 Y130.899 E0.0188
G1 X152.931 Y131.350 E0.0150
G1 X152.823 Y131.848 E0.0169
G1 X152.647 Y132.325 E0.0169
G1 X152.375 Y132.820 E0.0188
G1 X152.066 Y133.225 E0.0169
G1 X151.746 Y133.544 E0.0150
G1 X151.295 Y133.883 E0.0188
G1 X150.857 Y134.122 E0.0166
G1 X150.591 Y134.229 E0.0095
G1 X101.831 Y151.857 E1.7245
G1 X101.339 Y151.992 E0.0170
G1 X100.835 Y152.056 E0.0169
G1 X100.382 Y152.053 E0.0151
G1 X99.823 Y151.970 E0.0188
G1 X99.339 Y151.821 E0.0168
G1 X98.877 Y151.605 E0.0170
G1 X98.497 Y151.359 E0.0151
G1 X98.070 Y150.990 E0.0188
G1 X97.773 Y150.649 E0.0150
G1 X97.494 Y150.223 E0.0169
G1 X97.277 Y149.764 E0.0169
G1 X97.114 Y149.221 E0.0189
G1 X97.043 Y148.719 E0.0169
G1 X97.039 Y148.267 E0.0150
G1 X97.117 Y147.697 E0.0191
G1 X97.308 Y147.084 E0.0214
G1 X114.715 Y105.133 E1.5106
G1 X114.947 Y104.680 E0.0169
G1 X115.204 Y104.308 E0.0150
G1 X115.546 Y103.931 E0.0169
G0 F7200 X115.840 Y104.203
G1 F1200 X116.191 Y103.918 E0.0150
G1 X116.579 Y103.685 E0.0151
G1 X116.996 Y103.509 E0.0151
G1 X117.433 Y103.394 E0.0150
G1 X117.882 Y103.341 E0.0150
G1 X118.334 Y103.353 E0.0150
G1 X118.780 Y103.427 E0.0150
G1 X119.211 Y103.564 E0.0150
G1 X119.619 Y103.761 E0.0151
G1 X119.994 Y104.013 E0.0150
G1 X120.312 Y104.296 E0.0142
G1 X130.152 Y114.315 E0.4671
G1 X133.673 Y107.632 E0.2512
G1 X133.912 Y107.248 E0.0150
G1 X134.202 Y106.901 E0.0150
G1 X134.538 Y106.599 E0.0150
G1 X134.914 Y106.347 E0.0151
G1 X135.321 Y106.151 E0.0150
G1 X135.752 Y106.014 E0.0150
G1 X136.198 Y105.939 E0.0150
G1 X136.650 Y105.927 E0.0150
G1 X137.100 Y105.980 E0.0151
G1 X137.537 Y106.095 E0.0150
G1 X137.954 Y106.271 E0.0151
G1 X138.341 Y106.504 E0.0150
G1 X138.692 Y106.789 E0.0150
G1 X139.000 Y107.121 E0.0151
G1 X139.257 Y107.493 E0.0150
G1 X139.459 Y107.897 E0.0150
G1 X139.642 Y108.498 E0.0209
G1 X142.761 Y124.131 E0.5302
G1 X150.750 Y127.958 E0.2946
G1 X151.143 Y128.182 E0.0150
G1 X151.500 Y128.459 E0.0150
G1 X151.815 Y128.783 E0.0150
G1 X152.081 Y129.149 E0.0150
G1 X152.293 Y129.549 E0.0151
G1 X152.446 Y129.974 E0.0150
G1 X152.538 Y130.417 E0.0150
G1 X152.567 Y130.868 E0.0150
G1 X152.532 Y131.319 E0.0150
G1 X152.433 Y131.760 E0.0150
G1 X152.273 Y132.184 E0.0151
G1 X152.055 Y132.580 E0.0150
G1 X151.784 Y132.942 E0.0150
G1 X151.464 Y133.261 E0.0150
G1 X151.102 Y133.533 E0.0151
G1 X150.706 Y133.751 E0.0150
G1 X150.455 Y133.853 E0.0090
G1 X101.721 Y151.472 E1.7236
G1 X101.286 Y151.596 E0.0150
G1 X100.838 Y151.656 E0.0150
G1 X100.385 Y151.653 E0.0151
G1 X99.938 Y151.587 E0.0150
G1 X99.505 Y151.457 E0.0150
G1 X99.094 Y151.269 E0.0150
G1 X98.714 Y151.023 E0.0151
G1 X98.372 Y150.727 E0.0150
G1 X98.075 Y150.386 E0.0150
G1 X97.830 Y150.006 E0.0150
G1 X97.640 Y149.596 E0.0150
G1 X97.510 Y149.162 E0.0151
G1 X97.443 Y148.715 E0.0150
G1 X97.439 Y148.263 E0.0150
G1 X97.499 Y147.815 E0.0150
G1 X97.677 Y147.237 E0.0201
G1 X115.073 Y105.312 E1.5097
G1 X115.276 Y104.907 E0.0151
G1 X115.533 Y104.535 E0.0150
G1 X115.840 Y104.203 E0.0150
;PRINTING: SWAPlane-Button-Black.stl
;PRINTING_ID: 0
G1 F2400 E-6.5000
G1 F600 Z0.500
G0 F7200 X118.374 Y108.316
;TYPE:WALL-INNER
;WIDTH:0.400
G1 F600 Z0.200
G1 F2400 E6.5000
G1 F1200 X131.187 Y121.362 E0.6082
G1 X135.928 Y112.362 E0.3383
G1 X136.136 Y112.392 E0.0070
G1 X139.053 Y127.011 E0.4958
G1 X146.551 Y130.603 E0.2765
G1 X146.541 Y130.801 E0.0066
G1 X102.653 Y146.669 E1.5522
G1 X102.518 Y146.529 E0.0065
G1 X118.374 Y108.316 E1.3760
G0 F7200 X118.236 Y107.605
G1 F1200 X131.088 Y120.691 E0.6100
G1 X136.100 Y111.177 E0.3577
G1 X136.308 Y111.208 E0.0070
G1 X139.406 Y126.737 E0.5267
G1 X147.585 Y130.655 E0.3016
G1 X147.575 Y130.853 E0.0066
G1 X101.935 Y147.354 E1.6142
G1 X101.801 Y147.214 E0.0064
G1 X118.236 Y107.605 E1.4263
G1 F2400 E-6.5000
G1 F600 Z0.500
G0 F7200 X118.098 Y106.894
;TYPE:WALL-OUTER
;WIDTH:0.400
G1 F600 Z0.200
G1 F2400 E6.5000
G1 F1200 X130.989 Y120.020 E0.6119
G1 X136.271 Y109.994 E0.3769
G1 X136.480 Y110.025 E0.0070
G1 X139.759 Y126.463 E0.5575
G1 X148.619 Y130.707 E0.3267
G1 X148.609 Y130.905 E0.0066
G1 X101.218 Y148.039 E1.6761
G1 X101.084 Y147.898 E0.0065
G1 X118.098 Y106.894 E1.4765
G0 F1800 X118.238 Y107.036
G1 F2400 E-6.5000
G1 F600 Z0.500
G0 F7200 X118.166 Y107.105
G0 X118.512 Y109.028
;TYPE:SOLID-FILL
;WIDTH:0.400
G1 F600 Z0.200
G1 F2400 E6.5000
G1 F1200 X131.285 Y122.034 E0.6063
G1 X135.804 Y113.455 E0.3225
G1 X135.945 Y113.475 E0.0047
G1 X138.699 Y127.285 E0.4684
G1 X145.593 Y130.587 E0.2542
G1 X145.587 Y130.721 E0.0045
G1 X103.295 Y146.012 E1.4958
G1 X103.205 Y145.917 E0.0044
G1 X118.512 Y109.028 E1.3284
G0 F7200 X118.650 Y109.738
G1 F1200 X131.384 Y122.705 E0.6045
G1 X135.732 Y114.450 E0.3103
G1 X138.346 Y127.559 E0.4446
G1 X144.716 Y130.611 E0.2349
G1 X103.859 Y145.383 E1.4450
G1 X118.650 Y109.738 E1.2836
G0 F7200 X118.788 Y110.448
G1 F1200 X131.483 Y123.376 E0.6026
G1 X135.560 Y115.634 E0.2910
G1 X137.993 Y127.833 E0.4137
G1 X143.682 Y130.560 E0.2098
G1 X104.575 Y144.699 E1.3831
G1 X118.788 Y110.448 E1.2334
G1 F2400 E-6.5000
G1 F600 Z0.500
G0 F7200 X131.018 Y120.217
G0 X135.355 Y116.404
G1 F600 Z0.200
G1 F2400 E6.5000
G1 F1200 X135.365 Y116.698 E0.0102
G1 X135.712 Y117.328 E0.0239
G0 F7200 X135.853 Y118.034
G1 F1200 X134.964 Y117.145 E0.0418
G0 F7200 X134.769 Y117.516
G1 F1200 X135.995 Y118.741 E0.0576
G0 F7200 X136.135 Y119.448
G1 F1200 X134.575 Y117.887 E0.0734
G0 F7200 X134.379 Y118.257
G1 F1200 X136.276 Y120.154 E0.0892
G0 F7200 X136.417 Y120.861
G1 F1200 X134.184 Y118.628 E0.1050
G0 F7200 X133.989 Y118.999
G1 F1200 X136.558 Y121.567 E0.1208
G0 F7200 X136.700 Y122.275
G1 F1200 X133.794 Y119.369 E0.1367
G0 F7200 X133.599 Y119.740
G1 F1200 X136.840 Y122.981 E0.1524
G0 F7200 X136.981 Y123.687
G1 F1200 X133.404 Y120.110 E0.1683
G0 F7200 X133.209 Y120.481
G1 F1200 X137.122 Y124.394 E0.1841
G0 F7200 X137.263 Y125.101
G1 F1200 X133.013 Y120.851 E0.1999
G0 F7200 X132.818 Y121.222
G1 F1200 X137.404 Y125.807 E0.2157
G0 F7200 X137.545 Y126.514
G1 F1200 X132.623 Y121.592 E0.2315
G0 F7200 X132.429 Y121.963
G1 F1200 X137.686 Y127.221 E0.2473
G0 F7200 X137.827 Y127.928
G1 F1200 X132.233 Y122.334 E0.2631
G0 F7200 X132.038 Y122.704
G1 F1200 X140.759 Y131.425 E0.4102
G0 F7200 X140.343 Y131.575
G1 F1200 X131.843 Y123.075 E0.3998
G0 F7200 X131.648 Y123.445
G1 F1200 X139.928 Y131.726 E0.3895
G0 F7200 X139.512 Y131.876
G1 F1200 X118.718 Y111.081 E0.9781
G0 F7200 X118.552 Y111.481
G1 F1200 X139.097 Y132.026 E0.9664
G0 F7200 X138.682 Y132.176
G1 F1200 X118.386 Y111.881 E0.9546
G0 F7200 X118.220 Y112.280
G1 F1200 X138.266 Y132.326 E0.9429
G0 F7200 X137.851 Y132.477
G1 F1200 X118.055 Y112.681 E0.9311
G0 F7200 X117.888 Y113.080
G1 F1200 X137.435 Y132.627 E0.9194
G0 F7200 X137.020 Y132.777
G1 F1200 X117.723 Y113.480 E0.9077
G0 F7200 X117.557 Y113.880
G1 F1200 X136.604 Y132.927 E0.8959
G0 F7200 X136.188 Y133.077
G1 F1200 X117.391 Y114.279 E0.8842
G0 F7200 X117.225 Y114.679
G1 F1200 X135.773 Y133.228 E0.8725
G0 F7200 X135.357 Y133.378
G1 F1200 X117.059 Y115.079 E0.8607
G0 F7200 X116.893 Y115.479
G1 F1200 X134.942 Y133.528 E0.8490
G0 F7200 X134.527 Y133.678
G1 F1200 X116.727 Y115.879 E0.8372
G0 F7200 X116.561 Y116.278
G1 F1200 X134.111 Y133.829 E0.8255
G0 F7200 X133.696 Y133.979
G1 F1200 X116.396 Y116.678 E0.8138
G0 F7200 X116.229 Y117.078
G1 F1200 X133.280 Y134.128 E0.8020
G0 F7200 X132.865 Y134.279
G1 F1200 X116.064 Y117.478 E0.7903
G0 F7200 X115.898 Y117.878
G1 F1200 X132.449 Y134.429 E0.7785
G0 F7200 X132.034 Y134.580
G1 F1200 X115.732 Y118.277 E0.7668
G0 F7200 X115.566 Y118.677
G1 F1200 X131.618 Y134.730 E0.7551
G0 F7200 X131.202 Y134.879
G1 F1200 X115.400 Y119.077 E0.7433
G0 F7200 X115.234 Y119.477
G1 F1200 X130.787 Y135.030 E0.7316
G0 F7200 X130.372 Y135.180
G1 F1200 X115.068 Y119.877 E0.7198
G0 F7200 X114.902 Y120.276
G1 F1200 X129.957 Y135.331 E0.7081
G0 F7200 X129.541 Y135.480
G1 F1200 X114.737 Y120.676 E0.6963
G0 F7200 X114.571 Y121.076
G1 F1200 X129.126 Y135.631 E0.6846
G0 F7200 X128.710 Y135.781
G1 F1200 X114.404 Y121.475 E0.6729
G0 F7200 X114.239 Y121.876
G1 F1200 X128.294 Y135.931 E0.6611
G0 F7200 X127.879 Y136.081
G1 F1200 X114.073 Y122.275 E0.6494
G0 F7200 X113.907 Y122.675
G1 F1200 X127.463 Y136.231 E0.6376
G0 F7200 X127.048 Y136.382
G1 F1200 X113.741 Y123.075 E0.6259
G0 F7200 X113.575 Y123.474
G1 F1200 X126.632 Y136.532 E0.6142
G0 F7200 X126.217 Y136.682
G1 F1200 X113.410 Y123.875 E0.6024
G0 F7200 X113.243 Y124.274
G1 F1200 X125.802 Y136.832 E0.5907
G0 F7200 X125.386 Y136.982
G1 F1200 X113.077 Y124.674 E0.5790
G0 F7200 X112.912 Y125.074
G1 F1200 X124.971 Y137.133 E0.5672
G0 F7200 X124.555 Y137.283
G1 F1200 X112.746 Y125.473 E0.5555
G0 F7200 X112.580 Y125.874
G1 F1200 X124.140 Y137.433 E0.5437
G0 F7200 X123.724 Y137.583
G1 F1200 X112.414 Y126.273 E0.5320
G0 F7200 X112.248 Y126.673
G1 F1200 X123.308 Y137.733 E0.5202
G0 F7200 X122.893 Y137.884
G1 F1200 X112.082 Y127.073 E0.5085
G0 F7200 X111.916 Y127.472
G1 F1200 X122.477 Y138.034 E0.4968
G0 F7200 X122.062 Y138.184
G1 F1200 X111.751 Y127.873 E0.4850
G0 F7200 X111.584 Y128.272
G1 F1200 X121.647 Y138.334 E0.4733
G0 F7200 X121.231 Y138.484
G1 F1200 X111.418 Y128.672 E0.4615
G0 F7200 X111.253 Y129.072
G1 F1200 X120.816 Y138.635 E0.4498
G0 F7200 X120.400 Y138.785
G1 F1200 X111.087 Y129.471 E0.4381
G0 F7200 X110.921 Y129.871
G1 F1200 X119.985 Y138.935 E0.4263
G0 F7200 X119.569 Y139.085
G1 F1200 X110.755 Y130.271 E0.4146
G0 F7200 X110.589 Y130.671
G1 F1200 X119.153 Y139.235 E0.4028
G0 F7200 X118.738 Y139.386
G1 F1200 X110.423 Y131.071 E0.3911
G0 F7200 X110.257 Y131.470
G1 F1200 X118.323 Y139.536 E0.3794
G0 F7200 X117.907 Y139.686
G1 F1200 X110.091 Y131.870 E0.3676
G0 F7200 X109.926 Y132.270
G1 F1200 X117.492 Y139.836 E0.3559
G0 F7200 X117.077 Y139.987
G1 F1200 X109.759 Y132.670 E0.3442
G0 F7200 X109.594 Y133.070
G1 F1200 X116.661 Y140.137 E0.3324
G0 F7200 X116.245 Y140.287
G1 F1200 X109.428 Y133.469 E0.3207
G0 F7200 X109.262 Y133.869
G1 F1200 X115.830 Y140.437 E0.3089
G0 F7200 X115.414 Y140.587
G1 F1200 X109.096 Y134.269 E0.2972
G0 F7200 X108.930 Y134.669
G1 F1200 X114.999 Y140.738 E0.2855
G0 F7200 X114.583 Y140.888
G1 F1200 X108.765 Y135.069 E0.2737
G0 F7200 X108.598 Y135.468
G1 F1200 X114.168 Y141.038 E0.2620
G0 F7200 X113.752 Y141.188
G1 F1200 X108.432 Y135.868 E0.2502
G0 F7200 X108.267 Y136.268
G1 F1200 X113.337 Y141.338 E0.2385
G0 F7200 X112.922 Y141.489
G1 F1200 X108.101 Y136.668 E0.2268
G0 F7200 X107.934 Y137.067
G1 F1200 X112.506 Y141.639 E0.2151
G0 F7200 X112.091 Y141.789
G1 F1200 X107.769 Y137.467 E0.2033
G0 F7200 X107.603 Y137.867
G1 F1200 X111.675 Y141.939 E0.1915
G0 F7200 X111.259 Y142.089
G1 F1200 X107.437 Y138.267 E0.1798
G0 F7200 X107.271 Y138.667
G1 F1200 X110.844 Y142.240 E0.1681
G0 F7200 X110.428 Y142.390
G1 F1200 X107.105 Y139.066 E0.1563
G0 F7200 X106.940 Y139.466
G1 F1200 X110.013 Y142.540 E0.1446
G0 F7200 X109.598 Y142.690
G1 F1200 X106.773 Y139.866 E0.1329
G0 F7200 X106.608 Y140.266
G1 F1200 X109.182 Y142.840 E0.1211
G0 F7200 X108.767 Y142.991
G1 F1200 X106.442 Y140.666 E0.1094
G0 F7200 X106.276 Y141.065
G1 F1200 X108.351 Y143.141 E0.0976
G0 F7200 X107.936 Y143.291
G1 F1200 X106.110 Y141.465 E0.0859
G0 F7200 X105.944 Y141.865
G1 F1200 X107.520 Y143.441 E0.0741
G0 F7200 X107.105 Y143.592
G1 F1200 X105.778 Y142.264 E0.0624
G0 F7200 X105.612 Y142.665
G1 F1200 X106.689 Y143.742 E0.0507
G0 F7200 X106.273 Y143.891
G1 F1200 X105.446 Y143.064 E0.0389
G0 F7200 X105.281 Y143.464
G1 F1200 X105.858 Y144.042 E0.0272
